%
(1URACK_FRONTPANELG)
(T1  D=3. CR=0. TAPER=118DEG - ZMIN=-5.3 - DRILL)
N10 G90 G94 G17 G91.1
N15 G21
N20 G53 G0 Z0.
(TRACE2)
N25 M9
N30 T1 M6
N35 S5000 M3
N40 G54
N45 M8
N55 G0 X82.792 Y-32.718
N60 G43 Z15. H1
N65 G0 Z5.
N70 G1 Z-3.3 F0.
N75 Z-5.
N80 G19 G3 Y-32.418 Z-5.3 J0.3 K0.
N85 G1 Y-13.282
N90 X95.21
N95 Y-32.418
N100 X82.792
N105 G18 G3 X82.492 Z-5. I0. K0.3
N110 G1 Z5.
N115 G0 X107.307 Y-20.91
N120 G1 Z-3.3 F0.
N125 Z-5.
N130 X107.304 Y-20.903 Z-5.067
N135 X107.296 Y-20.883 Z-5.13
N140 X107.282 Y-20.85 Z-5.187
N145 X107.263 Y-20.806 Z-5.235
N150 X107.241 Y-20.753 Z-5.27
N155 X107.217 Y-20.695 Z-5.292
N160 X107.191 Y-20.633 Z-5.3
N165 X107.067 Y-20.338
N170 X106.969 Y-20.03
N175 X106.897 Y-19.708
N180 X106.853 Y-19.376
N185 X106.838 Y-19.041
N190 X106.851 Y-18.722
N195 X106.891 Y-18.406
N200 X106.957 Y-18.1
N205 X107.046 Y-17.805
N210 X107.158 Y-17.522
N215 X107.292 Y-17.251
N220 X107.477 Y-16.947
N225 X107.69 Y-16.662
N230 X107.928 Y-16.399
N235 X108.19 Y-16.16
N240 X108.442 Y-15.967
N245 X108.71 Y-15.797
N250 X108.992 Y-15.649
N255 X109.287 Y-15.525
N260 X109.594 Y-15.427
N265 X109.915 Y-15.355
N270 X110.247 Y-15.311
N275 X110.582 Y-15.296
N280 X110.933 Y-15.313
N285 X111.282 Y-15.363
N290 X111.624 Y-15.444
N295 X111.954 Y-15.556
N300 X112.268 Y-15.696
N305 X112.559 Y-15.859
N310 X112.832 Y-16.047
N315 X113.087 Y-16.258
N320 X113.324 Y-16.491
N325 X113.54 Y-16.743
N330 X113.732 Y-17.013
N335 X113.901 Y-17.301
N340 X114.044 Y-17.604
N345 X114.107 Y-17.765
N350 X114.164 Y-17.934
N355 X114.219 Y-18.124
N360 X114.279 Y-18.34
N365 X114.339 Y-18.559
N370 X114.4 Y-18.775
N375 X116.811
N380 Y-19.417
N385 X114.389
N390 X114.312 Y-19.674
N395 X114.16 Y-20.174
N400 X114.089 Y-20.378
N405 X114.01 Y-20.569
N410 X113.919 Y-20.757
N415 X113.818 Y-20.941
N420 X113.708 Y-21.117
N425 X113.515 Y-21.38
N430 X113.301 Y-21.626
N435 X113.066 Y-21.852
N440 X112.814 Y-22.058
N445 X112.538 Y-22.245
N450 X112.246 Y-22.407
N455 X111.936 Y-22.542
N460 X111.61 Y-22.65
N465 X111.272 Y-22.729
N470 X110.928 Y-22.778
N475 X110.582 Y-22.795
N480 X110.264 Y-22.781
N485 X109.948 Y-22.741
N490 X109.642 Y-22.676
N495 X109.348 Y-22.586
N500 X109.065 Y-22.473
N505 X108.794 Y-22.339
N510 X108.49 Y-22.153
N515 X108.205 Y-21.94
N520 X107.942 Y-21.701
N525 X107.702 Y-21.438
N530 X107.51 Y-21.185
N535 X107.339 Y-20.916
N540 X107.191 Y-20.633
N545 X107.16 Y-20.574 Z-5.292
N550 X107.131 Y-20.518 Z-5.27
N555 X107.104 Y-20.468 Z-5.235
N560 X107.082 Y-20.426 Z-5.187
N565 X107.066 Y-20.394 Z-5.13
N570 X107.055 Y-20.374 Z-5.067
N575 X107.052 Y-20.368 Z-5.
N580 Z5.
N585 G0 X126.205 Y-25.078
N590 G1 Z-3.3 F0.
N595 Z-5.
N600 X126.203 Y-25.085 Z-5.067
N605 X126.196 Y-25.106 Z-5.13
N610 X126.185 Y-25.14 Z-5.187
N615 X126.171 Y-25.186 Z-5.235
N620 X126.154 Y-25.24 Z-5.27
N625 X126.134 Y-25.3 Z-5.292
N630 X126.114 Y-25.364 Z-5.3
N635 X126.016 Y-25.671
N640 X125.944 Y-25.992
N645 X125.9 Y-26.324
N650 X125.885 Y-26.659
N655 X125.898 Y-26.978
N660 X125.938 Y-27.295
N665 X126.003 Y-27.601
N670 X126.093 Y-27.896
N675 X126.205 Y-28.18
N680 X126.339 Y-28.452
N685 X126.525 Y-28.757
N690 X126.737 Y-29.043
N695 X126.975 Y-29.307
N700 X127.237 Y-29.547
N705 X127.49 Y-29.74
N710 X127.758 Y-29.911
N715 X128.04 Y-30.059
N720 X128.335 Y-30.183
N725 X128.642 Y-30.282
N730 X128.963 Y-30.354
N735 X129.294 Y-30.398
N740 X129.629 Y-30.413
N745 X129.974 Y-30.397
N750 X130.317 Y-30.348
N755 X130.654 Y-30.27
N760 X130.98 Y-30.162
N765 X131.289 Y-30.027
N770 X131.576 Y-29.869
N775 X131.847 Y-29.687
N780 X132.1 Y-29.482
N785 X132.336 Y-29.257
N790 X132.552 Y-29.012
N795 X132.745 Y-28.75
N800 X132.916 Y-28.47
N805 X133.062 Y-28.176
N810 X133.127 Y-28.019
N815 X133.187 Y-27.855
N820 X133.244 Y-27.67
N825 X133.308 Y-27.46
N830 X133.372 Y-27.247
N835 X133.436 Y-27.036
N840 X135.858
N845 Y-26.394
N850 X133.446
N855 X133.299 Y-25.864
N860 X133.23 Y-25.617
N865 X133.162 Y-25.406
N870 X133.086 Y-25.211
N875 X132.997 Y-25.017
N880 X132.898 Y-24.828
N885 X132.788 Y-24.647
N890 X132.597 Y-24.375
N895 X132.382 Y-24.122
N900 X132.147 Y-23.888
N905 X131.892 Y-23.676
N910 X131.614 Y-23.483
N915 X131.318 Y-23.316
N920 X131.004 Y-23.176
N925 X130.673 Y-23.064
N930 X130.33 Y-22.982
N935 X129.98 Y-22.932
N940 X129.629 Y-22.915
N945 X129.31 Y-22.928
N950 X128.994 Y-22.968
N955 X128.688 Y-23.033
N960 X128.394 Y-23.122
N965 X128.111 Y-23.235
N970 X127.839 Y-23.369
N975 X127.535 Y-23.554
N980 X127.251 Y-23.767
N985 X126.987 Y-24.005
N990 X126.748 Y-24.266
N995 X126.556 Y-24.519
N1000 X126.385 Y-24.787
N1005 X126.238 Y-25.069
N1010 X126.114 Y-25.364
N1015 X126.088 Y-25.425 Z-5.292
N1020 X126.064 Y-25.484 Z-5.27
N1025 X126.041 Y-25.536 Z-5.235
N1030 X126.023 Y-25.58 Z-5.187
N1035 X126.009 Y-25.613 Z-5.13
N1040 X126.001 Y-25.633 Z-5.067
N1045 X125.998 Y-25.64 Z-5.
N1050 Z5.
N1055 G0 X300.415 Y-22.55
N1060 G1 Z-3.3 F0.
N1065 Z-5.
N1070 X300.416 Y-22.558 Z-5.067
N1075 X300.417 Y-22.58 Z-5.13
N1080 X300.418 Y-22.616 Z-5.187
N1085 X300.421 Y-22.663 Z-5.235
N1090 X300.424 Y-22.72 Z-5.27
N1095 X300.427 Y-22.783 Z-5.292
N1100 X300.43 Y-22.85 Z-5.3
N1105 X300.447 Y-23.195
N1110 X300.495 Y-23.538
N1115 X300.574 Y-23.875
N1120 X300.681 Y-24.2
N1125 X300.817 Y-24.51
N1130 X300.975 Y-24.797
N1135 X301.157 Y-25.068
N1140 X301.361 Y-25.321
N1145 X301.587 Y-25.557
N1150 X301.832 Y-25.772
N1155 X302.094 Y-25.966
N1160 X302.373 Y-26.137
N1165 X302.668 Y-26.283
N1170 X302.824 Y-26.348
N1175 X302.989 Y-26.408
N1180 X303.173 Y-26.465
N1185 X303.384 Y-26.529
N1190 X303.596 Y-26.593
N1195 X303.807 Y-26.657
N1200 Y-29.079
N1205 X304.449
N1210 Y-26.667
N1215 X304.713 Y-26.594
N1220 X304.98 Y-26.52
N1225 X305.226 Y-26.451
N1230 X305.437 Y-26.383
N1235 X305.632 Y-26.306
N1240 X305.826 Y-26.218
N1245 X306.015 Y-26.118
N1250 X306.197 Y-26.009
N1255 X306.468 Y-25.818
N1260 X306.721 Y-25.603
N1265 X306.955 Y-25.367
N1270 X307.167 Y-25.113
N1275 X307.36 Y-24.835
N1280 X307.528 Y-24.539
N1285 X307.668 Y-24.225
N1290 X307.78 Y-23.894
N1295 X307.861 Y-23.551
N1300 X307.912 Y-23.201
N1305 X307.929 Y-22.85
N1310 X307.915 Y-22.531
N1315 X307.875 Y-22.215
N1320 X307.81 Y-21.909
N1325 X307.721 Y-21.615
N1330 X307.609 Y-21.332
N1335 X307.475 Y-21.06
N1340 X307.289 Y-20.756
N1345 X307.077 Y-20.471
N1350 X306.839 Y-20.208
N1355 X306.577 Y-19.969
N1360 X306.325 Y-19.777
N1365 X306.057 Y-19.606
N1370 X305.775 Y-19.458
N1375 X305.48 Y-19.335
N1380 X305.172 Y-19.236
N1385 X304.852 Y-19.165
N1390 X304.52 Y-19.121
N1395 X304.184 Y-19.105
N1400 X303.865 Y-19.119
N1405 X303.549 Y-19.159
N1410 X303.242 Y-19.224
N1415 X302.947 Y-19.313
N1420 X302.664 Y-19.426
N1425 X302.391 Y-19.56
N1430 X302.086 Y-19.745
N1435 X301.801 Y-19.958
N1440 X301.537 Y-20.196
N1445 X301.297 Y-20.458
N1450 X301.104 Y-20.711
N1455 X300.933 Y-20.979
N1460 X300.784 Y-21.261
N1465 X300.66 Y-21.556
N1470 X300.562 Y-21.863
N1475 X300.49 Y-22.183
N1480 X300.445 Y-22.515
N1485 X300.43 Y-22.85
N1490 X300.427 Y-22.917 Z-5.292
N1495 X300.424 Y-22.98 Z-5.27
N1500 X300.422 Y-23.037 Z-5.235
N1505 X300.42 Y-23.084 Z-5.187
N1510 X300.418 Y-23.12 Z-5.13
N1515 X300.417 Y-23.142 Z-5.067
N1520 Y-23.15 Z-5.
N1525 Z5.
N1530 G0 X356.408 Y-22.55
N1535 G1 Z-3.3 F0.
N1540 Z-5.
N1545 Y-22.558 Z-5.067
N1550 X356.409 Y-22.58 Z-5.13
N1555 X356.411 Y-22.616 Z-5.187
N1560 X356.413 Y-22.663 Z-5.235
N1565 X356.416 Y-22.72 Z-5.27
N1570 X356.419 Y-22.783 Z-5.292
N1575 X356.422 Y-22.85 Z-5.3
N1580 X356.438 Y-23.195
N1585 X356.487 Y-23.538
N1590 X356.565 Y-23.875
N1595 X356.673 Y-24.2
N1600 X356.808 Y-24.51
N1605 X356.966 Y-24.797
N1610 X357.148 Y-25.068
N1615 X357.353 Y-25.321
N1620 X357.578 Y-25.557
N1625 X357.823 Y-25.772
N1630 X358.085 Y-25.966
N1635 X358.365 Y-26.137
N1640 X358.66 Y-26.283
N1645 X358.816 Y-26.348
N1650 X358.98 Y-26.408
N1655 X359.165 Y-26.465
N1660 X359.799 Y-26.657
N1665 Y-29.079
N1670 X360.441
N1675 Y-26.667
N1680 X360.971 Y-26.52
N1685 X361.218 Y-26.451
N1690 X361.429 Y-26.383
N1695 X361.624 Y-26.306
N1700 X361.818 Y-26.218
N1705 X362.007 Y-26.118
N1710 X362.189 Y-26.009
N1715 X362.46 Y-25.818
N1720 X362.713 Y-25.603
N1725 X362.947 Y-25.367
N1730 X363.159 Y-25.113
N1735 X363.352 Y-24.835
N1740 X363.519 Y-24.539
N1745 X363.66 Y-24.225
N1750 X363.771 Y-23.894
N1755 X363.853 Y-23.551
N1760 X363.903 Y-23.201
N1765 X363.92 Y-22.85
N1770 X363.907 Y-22.531
N1775 X363.867 Y-22.215
N1780 X363.802 Y-21.909
N1785 X363.713 Y-21.615
N1790 X363.6 Y-21.332
N1795 X363.466 Y-21.06
N1800 X363.281 Y-20.756
N1805 X363.069 Y-20.471
N1810 X362.831 Y-20.208
N1815 X362.569 Y-19.969
N1820 X362.316 Y-19.777
N1825 X362.049 Y-19.606
N1830 X361.766 Y-19.458
N1835 X361.471 Y-19.335
N1840 X361.164 Y-19.236
N1845 X360.843 Y-19.165
N1850 X360.511 Y-19.121
N1855 X360.176 Y-19.105
N1860 X359.857 Y-19.119
N1865 X359.541 Y-19.159
N1870 X359.234 Y-19.224
N1875 X358.939 Y-19.313
N1880 X358.655 Y-19.426
N1885 X358.383 Y-19.56
N1890 X358.078 Y-19.745
N1895 X357.792 Y-19.958
N1900 X357.528 Y-20.196
N1905 X357.288 Y-20.458
N1910 X357.095 Y-20.711
N1915 X356.924 Y-20.979
N1920 X356.776 Y-21.261
N1925 X356.652 Y-21.556
N1930 X356.553 Y-21.863
N1935 X356.481 Y-22.183
N1940 X356.437 Y-22.515
N1945 X356.422 Y-22.85
N1950 X356.419 Y-22.917 Z-5.292
N1955 X356.416 Y-22.98 Z-5.27
N1960 X356.414 Y-23.037 Z-5.235
N1965 X356.412 Y-23.084 Z-5.187
N1970 X356.41 Y-23.12 Z-5.13
N1975 X356.409 Y-23.142 Z-5.067
N1980 Y-23.15 Z-5.
N1985 Z5.
N1990 G0 X405.586 Y-22.773
N1995 G1 Z-3.3 F0.
N2000 Z-5.
N2005 X405.587 Y-22.781 Z-5.067
N2010 X405.588 Y-22.803 Z-5.13
N2015 X405.59 Y-22.838 Z-5.187
N2020 X405.592 Y-22.886 Z-5.235
N2025 X405.595 Y-22.943 Z-5.27
N2030 X405.598 Y-23.006 Z-5.292
N2035 X405.602 Y-23.073 Z-5.3
N2040 X405.636 Y-23.717
N2045 X405.71 Y-24.357
N2050 X405.823 Y-24.992
N2055 X405.975 Y-25.619
N2060 X406.166 Y-26.235
N2065 X406.395 Y-26.838
N2070 X406.661 Y-27.426
N2075 X406.962 Y-27.996
N2080 X407.299 Y-28.546
N2085 X407.668 Y-29.074
N2090 X408.07 Y-29.579
N2095 X408.502 Y-30.057
N2100 X408.963 Y-30.508
N2105 X409.452 Y-30.93
N2110 X409.965 Y-31.32
N2115 X410.502 Y-31.678
N2120 X411.059 Y-32.001
N2125 X411.636 Y-32.29
N2130 X412.23 Y-32.542
N2135 X412.837 Y-32.757
N2140 X413.458 Y-32.935
N2145 X414.088 Y-33.073
N2150 X414.725 Y-33.172
N2155 X415.367 Y-33.231
N2160 X416.012 Y-33.25
N2165 X416.656 Y-33.229
N2170 X417.298 Y-33.169
N2175 X417.935 Y-33.068
N2180 X418.565 Y-32.929
N2185 X419.185 Y-32.75
N2190 X419.792 Y-32.534
N2195 X420.385 Y-32.28
N2200 X420.961 Y-31.99
N2205 X421.518 Y-31.665
N2210 X422.054 Y-31.306
N2215 X422.566 Y-30.915
N2220 X423.054 Y-30.492
N2225 X423.514 Y-30.041
N2230 X423.945 Y-29.561
N2235 X424.346 Y-29.056
N2240 X424.714 Y-28.527
N2245 X425.049 Y-27.975
N2250 X425.35 Y-27.405
N2255 X425.614 Y-26.816
N2260 X425.841 Y-26.213
N2265 X426.031 Y-25.597
N2270 X426.182 Y-24.969
N2275 X426.294 Y-24.334
N2280 X426.366 Y-23.694
N2285 X426.398 Y-23.049
N2290 X426.4 Y-22.85
N2295 X426.38 Y-22.205
N2300 X426.32 Y-21.563
N2305 X426.221 Y-20.926
N2310 X426.082 Y-20.296
N2315 X425.904 Y-19.676
N2320 X425.688 Y-19.069
N2325 X425.435 Y-18.476
N2330 X425.146 Y-17.899
N2335 X424.822 Y-17.342
N2340 X424.463 Y-16.806
N2345 X424.072 Y-16.293
N2350 X423.65 Y-15.805
N2355 X423.199 Y-15.344
N2360 X422.72 Y-14.913
N2365 X422.215 Y-14.511
N2370 X421.686 Y-14.142
N2375 X421.136 Y-13.806
N2380 X420.565 Y-13.505
N2385 X419.977 Y-13.241
N2390 X419.374 Y-13.012
N2395 X418.758 Y-12.822
N2400 X418.131 Y-12.671
N2405 X417.496 Y-12.558
N2410 X416.855 Y-12.485
N2415 X416.211 Y-12.452
N2420 X415.566 Y-12.459
N2425 X414.923 Y-12.506
N2430 X414.284 Y-12.592
N2435 X413.652 Y-12.719
N2440 X413.028 Y-12.884
N2445 X412.416 Y-13.087
N2450 X411.818 Y-13.328
N2455 X411.236 Y-13.605
N2460 X410.672 Y-13.918
N2465 X410.129 Y-14.266
N2470 X409.608 Y-14.646
N2475 X409.112 Y-15.058
N2480 X408.642 Y-15.5
N2485 X408.201 Y-15.97
N2490 X407.789 Y-16.467
N2495 X407.409 Y-16.988
N2500 X407.063 Y-17.532
N2505 X406.75 Y-18.096
N2510 X406.473 Y-18.678
N2515 X406.233 Y-19.277
N2520 X406.03 Y-19.889
N2525 X405.866 Y-20.513
N2530 X405.741 Y-21.146
N2535 X405.655 Y-21.785
N2540 X405.609 Y-22.428
N2545 X405.602 Y-23.073
N2550 X405.601 Y-23.139 Z-5.292
N2555 Y-23.203 Z-5.27
N2560 X405.6 Y-23.26 Z-5.235
N2565 X405.599 Y-23.307 Z-5.187
N2570 Y-23.343 Z-5.13
N2575 Y-23.365 Z-5.067
N2580 Y-23.373 Z-5.
N2585 Z5.
N2590 G0 Z15.
N2595 G17
N2600 M9
N2605 G53 G0 Z0.
N2610 M30
%
