%
(1URACK_FRONTPANELG)
(T1  D=3. CR=0. TAPER=108DEG - ZMIN=-5.3 - DRILL)
N10 G90 G94 G17 G91.1
N15 G21
N20 G53 G0 Z0.
(TRACE1)
N25 M9
N30 T1 M6
N35 S5000 M3
N40 G54
N45 M9
N55 G0 X35.15 Y-4.95
N60 G43 Z2.5 H1
N65 G1 Z-3.3 F0.
N70 Z-5.
N75 G18 G2 X35.45 Z-5.3 I0.3 K0.
N80 G1 X77.05
N85 X77.332 Y-4.97
N90 X77.608 Y-5.03
N95 X77.873 Y-5.127
N100 X78.122 Y-5.262
N105 X78.35 Y-5.43
N110 X78.551 Y-5.628
N115 X78.722 Y-5.853
N120 X78.86 Y-6.1
N125 X78.962 Y-6.363
N130 X79.026 Y-6.639
N135 X79.05 Y-6.92
N140 Y-6.95
N145 Y-27.55
N150 X79.03 Y-27.832
N155 X78.97 Y-28.108
N160 X78.873 Y-28.374
N165 X78.738 Y-28.622
N170 X78.57 Y-28.85
N175 X78.372 Y-29.051
N180 X78.147 Y-29.222
N185 X77.9 Y-29.36
N190 X77.637 Y-29.462
N195 X77.361 Y-29.526
N200 X77.08 Y-29.55
N205 X77.05
N210 X35.45
N215 X35.168 Y-29.53
N220 X34.892 Y-29.471
N225 X34.626 Y-29.373
N230 X34.378 Y-29.238
N235 X34.151 Y-29.07
N240 X33.949 Y-28.872
N245 X33.778 Y-28.647
N250 X33.64 Y-28.4
N255 X33.538 Y-28.137
N260 X33.474 Y-27.861
N265 X33.45 Y-27.58
N270 Y-27.55
N275 Y-6.95
N280 X33.47 Y-6.668
N285 X33.529 Y-6.392
N290 X33.627 Y-6.127
N295 X33.762 Y-5.878
N300 X33.93 Y-5.65
N305 X34.128 Y-5.449
N310 X34.353 Y-5.278
N315 X34.6 Y-5.14
N320 X34.863 Y-5.038
N325 X35.139 Y-4.974
N330 X35.42 Y-4.95
N335 X35.45
N340 X35.517 Z-5.292
N345 X35.58 Y-4.949 Z-5.27
N350 X35.637 Z-5.235
N355 X35.685 Y-4.948 Z-5.187
N360 X35.72 Z-5.13
N365 X35.742 Z-5.067
N370 X35.75 Z-5.
N375 Z5.
N380 G0 X108.164 Y-22.037
N385 G1 Z-3.3 F0.
N390 Z-5.
N395 X108.163 Y-22.044 Z-5.067
N400 X108.158 Y-22.066 Z-5.13
N405 X108.15 Y-22.101 Z-5.187
N410 X108.14 Y-22.147 Z-5.235
N415 X108.127 Y-22.203 Z-5.27
N420 X108.114 Y-22.265 Z-5.292
N425 X108.099 Y-22.33 Z-5.3
N430 X108.002 Y-22.764
N435 X107.945 Y-23.205
N440 X107.927 Y-23.649
N445 X107.949 Y-24.094
N450 X108.011 Y-24.534
N455 X108.112 Y-24.967
N460 X108.252 Y-25.39
N465 X108.429 Y-25.798
N470 X108.642 Y-26.188
N475 X108.889 Y-26.558
N480 X109.169 Y-26.904
N485 X109.478 Y-27.224
N490 X109.815 Y-27.515
N495 X110.177 Y-27.774
N500 X110.56 Y-27.999
N505 X110.962 Y-28.19
N510 X111.38 Y-28.343
N515 X111.809 Y-28.458
N520 X112.248 Y-28.535
N525 X112.691 Y-28.572
N530 X113.136 Y-28.568
N535 X113.579 Y-28.525
N540 X114.016 Y-28.442
N545 X114.444 Y-28.32
N550 X114.859 Y-28.161
N555 X115.258 Y-27.965
N560 X115.638 Y-27.733
N565 X115.996 Y-27.469
N570 X116.328 Y-27.173
N575 X116.633 Y-26.849
N580 X116.907 Y-26.499
N585 X117.149 Y-26.125
N590 X117.356 Y-25.732
N595 X117.527 Y-25.321
N600 X117.661 Y-24.897
N605 X117.756 Y-24.462
N610 X117.811 Y-24.021
N615 X117.827 Y-23.625
N620 X117.807 Y-23.181
N625 X117.747 Y-22.74
N630 X117.648 Y-22.306
N635 X117.51 Y-21.883
N640 X117.335 Y-21.474
N645 X117.124 Y-21.083
N650 X116.879 Y-20.712
N655 X116.601 Y-20.364
N660 X116.293 Y-20.043
N665 X115.958 Y-19.751
N670 X115.597 Y-19.49
N675 X115.215 Y-19.262
N680 X114.814 Y-19.07
N685 X114.397 Y-18.914
N690 X113.968 Y-18.797
N695 X113.53 Y-18.718
N700 X113.087 Y-18.68
N705 X112.642 Y-18.681
N710 X112.199 Y-18.722
N715 X111.762 Y-18.802
N720 X111.333 Y-18.922
N725 X110.917 Y-19.079
N730 X110.517 Y-19.274
N735 X110.136 Y-19.503
N740 X109.777 Y-19.766
N745 X109.443 Y-20.06
N750 X109.137 Y-20.382
N755 X108.861 Y-20.731
N760 X108.617 Y-21.104
N765 X108.408 Y-21.496
N770 X108.235 Y-21.906
N775 X108.099 Y-22.33
N780 X108.079 Y-22.393 Z-5.292
N785 X108.059 Y-22.454 Z-5.27
N790 X108.042 Y-22.508 Z-5.235
N795 X108.027 Y-22.553 Z-5.187
N800 X108.016 Y-22.587 Z-5.13
N805 X108.01 Y-22.608 Z-5.067
N810 X108.007 Y-22.615 Z-5.
N815 Z5.
N820 G0 X128.912 Y-23.35
N825 G1 Z-3.3 F0.
N830 Z-5.
N835 X128.913 Y-23.357 Z-5.067
N840 X128.914 Y-23.379 Z-5.13
N845 X128.915 Y-23.415 Z-5.187
N850 X128.918 Y-23.463 Z-5.235
N855 X128.921 Y-23.519 Z-5.27
N860 X128.924 Y-23.583 Z-5.292
N865 X128.927 Y-23.649 Z-5.3
N870 X128.949 Y-24.094
N875 X129.011 Y-24.534
N880 X129.112 Y-24.967
N885 X129.252 Y-25.39
N890 X129.429 Y-25.798
N895 X129.642 Y-26.188
N900 X129.889 Y-26.558
N905 X130.169 Y-26.904
N910 X130.478 Y-27.224
N915 X130.815 Y-27.515
N920 X131.177 Y-27.774
N925 X131.56 Y-27.999
N930 X131.962 Y-28.19
N935 X132.38 Y-28.343
N940 X132.809 Y-28.458
N945 X133.248 Y-28.535
N950 X133.691 Y-28.572
N955 X134.136 Y-28.568
N960 X134.579 Y-28.525
N965 X135.016 Y-28.442
N970 X135.444 Y-28.32
N975 X135.859 Y-28.161
N980 X136.258 Y-27.965
N985 X136.638 Y-27.733
N990 X136.996 Y-27.469
N995 X137.328 Y-27.173
N1000 X137.633 Y-26.849
N1005 X137.907 Y-26.499
N1010 X138.149 Y-26.125
N1015 X138.356 Y-25.732
N1020 X138.527 Y-25.321
N1025 X138.661 Y-24.897
N1030 X138.756 Y-24.462
N1035 X138.811 Y-24.021
N1040 X138.827 Y-23.625
N1045 X138.807 Y-23.181
N1050 X138.747 Y-22.74
N1055 X138.648 Y-22.306
N1060 X138.51 Y-21.883
N1065 X138.335 Y-21.474
N1070 X138.124 Y-21.083
N1075 X137.879 Y-20.712
N1080 X137.601 Y-20.364
N1085 X137.293 Y-20.043
N1090 X136.958 Y-19.751
N1095 X136.597 Y-19.49
N1100 X136.215 Y-19.262
N1105 X135.814 Y-19.07
N1110 X135.397 Y-18.914
N1115 X134.968 Y-18.797
N1120 X134.53 Y-18.718
N1125 X134.087 Y-18.68
N1130 X133.642 Y-18.681
N1135 X133.199 Y-18.722
N1140 X132.762 Y-18.802
N1145 X132.333 Y-18.922
N1150 X131.917 Y-19.079
N1155 X131.517 Y-19.274
N1160 X131.136 Y-19.503
N1165 X130.777 Y-19.766
N1170 X130.443 Y-20.06
N1175 X130.137 Y-20.382
N1180 X129.861 Y-20.731
N1185 X129.617 Y-21.104
N1190 X129.408 Y-21.496
N1195 X129.235 Y-21.906
N1200 X129.099 Y-22.33
N1205 X129.002 Y-22.764
N1210 X128.945 Y-23.205
N1215 X128.927 Y-23.649
N1220 X128.924 Y-23.716 Z-5.292
N1225 X128.922 Y-23.779 Z-5.27
N1230 X128.919 Y-23.836 Z-5.235
N1235 X128.918 Y-23.884 Z-5.187
N1240 X128.916 Y-23.919 Z-5.13
N1245 X128.915 Y-23.942 Z-5.067
N1250 Y-23.949 Z-5.
N1255 Z5.
N1260 G0 X153.363 Y-18.982
N1265 G1 Z-3.3 F0.
N1270 Z-5.
N1275 X153.365 Y-18.99 Z-5.067
N1280 X153.372 Y-19.011 Z-5.13
N1285 X153.383 Y-19.045 Z-5.187
N1290 X153.397 Y-19.09 Z-5.235
N1295 X153.413 Y-19.145 Z-5.27
N1300 X153.432 Y-19.205 Z-5.292
N1305 X153.452 Y-19.269 Z-5.3
N1310 X153.643 Y-19.885
N1315 X153.872 Y-20.488
N1320 X154.137 Y-21.076
N1325 X154.439 Y-21.646
N1330 X154.775 Y-22.196
N1335 X155.145 Y-22.724
N1340 X155.547 Y-23.229
N1345 X155.979 Y-23.707
N1350 X156.44 Y-24.158
N1355 X156.928 Y-24.58
N1360 X157.442 Y-24.97
N1365 X157.978 Y-25.328
N1370 X158.536 Y-25.652
N1375 X159.113 Y-25.94
N1380 X159.706 Y-26.192
N1385 X160.314 Y-26.407
N1390 X160.934 Y-26.584
N1395 X161.564 Y-26.723
N1400 X162.202 Y-26.822
N1405 X162.844 Y-26.881
N1410 X163.488 Y-26.9
N1415 X164.133 Y-26.879
N1420 X164.775 Y-26.819
N1425 X165.412 Y-26.718
N1430 X166.042 Y-26.579
N1435 X166.661 Y-26.4
N1440 X167.269 Y-26.184
N1445 X167.862 Y-25.93
N1450 X168.438 Y-25.64
N1455 X168.995 Y-25.315
N1460 X169.531 Y-24.956
N1465 X170.043 Y-24.565
N1470 X170.53 Y-24.142
N1475 X170.991 Y-23.691
N1480 X171.422 Y-23.211
N1485 X171.822 Y-22.706
N1490 X172.191 Y-22.177
N1495 X172.526 Y-21.625
N1500 X172.826 Y-21.055
N1505 X173.091 Y-20.466
N1510 X173.318 Y-19.863
N1515 X173.508 Y-19.247
N1520 X173.659 Y-18.619
N1525 X173.77 Y-17.984
N1530 X173.843 Y-17.344
N1535 X173.875 Y-16.699
N1540 X173.877 Y-16.5
N1545 X173.857 Y-15.855
N1550 X173.797 Y-15.213
N1555 X173.697 Y-14.576
N1560 X173.558 Y-13.946
N1565 X173.381 Y-13.326
N1570 X173.165 Y-12.719
N1575 X172.912 Y-12.125
N1580 X172.623 Y-11.549
N1585 X172.298 Y-10.992
N1590 X171.94 Y-10.456
N1595 X171.549 Y-9.943
N1600 X171.127 Y-9.455
N1605 X170.676 Y-8.994
N1610 X170.197 Y-8.563
N1615 X169.692 Y-8.161
N1620 X169.163 Y-7.792
N1625 X168.612 Y-7.456
N1630 X168.042 Y-7.156
N1635 X167.454 Y-6.891
N1640 X166.851 Y-6.663
N1645 X166.235 Y-6.472
N1650 X165.608 Y-6.321
N1655 X164.973 Y-6.208
N1660 X164.332 Y-6.135
N1665 X163.688 Y-6.102
N1670 X163.043 Y-6.109
N1675 X162.4 Y-6.156
N1680 X161.761 Y-6.243
N1685 X161.128 Y-6.369
N1690 X160.505 Y-6.534
N1695 X159.893 Y-6.737
N1700 X159.295 Y-6.978
N1705 X158.713 Y-7.255
N1710 X158.149 Y-7.569
N1715 X157.605 Y-7.916
N1720 X157.085 Y-8.296
N1725 X156.588 Y-8.708
N1730 X156.119 Y-9.15
N1735 X155.677 Y-9.62
N1740 X155.266 Y-10.117
N1745 X154.886 Y-10.638
N1750 X154.539 Y-11.182
N1755 X154.227 Y-11.746
N1760 X153.95 Y-12.328
N1765 X153.71 Y-12.927
N1770 X153.507 Y-13.539
N1775 X153.343 Y-14.163
N1780 X153.217 Y-14.795
N1785 X153.132 Y-15.435
N1790 X153.085 Y-16.078
N1795 X153.079 Y-16.723
N1800 X153.113 Y-17.367
N1805 X153.187 Y-18.007
N1810 X153.3 Y-18.642
N1815 X153.452 Y-19.269
N1820 X153.468 Y-19.334 Z-5.292
N1825 X153.483 Y-19.395 Z-5.27
N1830 X153.496 Y-19.451 Z-5.235
N1835 X153.507 Y-19.497 Z-5.187
N1840 X153.516 Y-19.532 Z-5.13
N1845 X153.521 Y-19.553 Z-5.067
N1850 X153.523 Y-19.561 Z-5.
N1855 Z5.
N1860 G0 X181.063 Y-16.423
N1865 G1 Z-3.3 F0.
N1870 Z-5.
N1875 X181.064 Y-16.431 Z-5.067
N1880 X181.065 Y-16.453 Z-5.13
N1885 X181.067 Y-16.488 Z-5.187
N1890 X181.069 Y-16.536 Z-5.235
N1895 X181.072 Y-16.593 Z-5.27
N1900 X181.075 Y-16.656 Z-5.292
N1905 X181.079 Y-16.723 Z-5.3
N1910 X181.113 Y-17.367
N1915 X181.187 Y-18.007
N1920 X181.3 Y-18.642
N1925 X181.452 Y-19.269
N1930 X181.643 Y-19.885
N1935 X181.872 Y-20.488
N1940 X182.137 Y-21.076
N1945 X182.439 Y-21.646
N1950 X182.775 Y-22.196
N1955 X183.145 Y-22.724
N1960 X183.547 Y-23.229
N1965 X183.979 Y-23.707
N1970 X184.44 Y-24.158
N1975 X184.928 Y-24.58
N1980 X185.442 Y-24.97
N1985 X185.978 Y-25.328
N1990 X186.536 Y-25.652
N1995 X187.113 Y-25.94
N2000 X187.706 Y-26.192
N2005 X188.314 Y-26.407
N2010 X188.934 Y-26.584
N2015 X189.564 Y-26.723
N2020 X190.202 Y-26.822
N2025 X190.844 Y-26.881
N2030 X191.488 Y-26.9
N2035 X192.133 Y-26.879
N2040 X192.775 Y-26.819
N2045 X193.412 Y-26.718
N2050 X194.042 Y-26.579
N2055 X194.661 Y-26.4
N2060 X195.269 Y-26.184
N2065 X195.862 Y-25.93
N2070 X196.438 Y-25.64
N2075 X196.995 Y-25.315
N2080 X197.531 Y-24.956
N2085 X198.043 Y-24.565
N2090 X198.53 Y-24.142
N2095 X198.991 Y-23.691
N2100 X199.422 Y-23.211
N2105 X199.822 Y-22.706
N2110 X200.191 Y-22.177
N2115 X200.526 Y-21.625
N2120 X200.826 Y-21.055
N2125 X201.091 Y-20.466
N2130 X201.318 Y-19.863
N2135 X201.508 Y-19.247
N2140 X201.659 Y-18.619
N2145 X201.77 Y-17.984
N2150 X201.843 Y-17.344
N2155 X201.875 Y-16.699
N2160 X201.877 Y-16.5
N2165 X201.857 Y-15.855
N2170 X201.797 Y-15.213
N2175 X201.697 Y-14.576
N2180 X201.558 Y-13.946
N2185 X201.381 Y-13.326
N2190 X201.165 Y-12.719
N2195 X200.912 Y-12.125
N2200 X200.623 Y-11.549
N2205 X200.298 Y-10.992
N2210 X199.94 Y-10.456
N2215 X199.549 Y-9.943
N2220 X199.127 Y-9.455
N2225 X198.676 Y-8.994
N2230 X198.197 Y-8.563
N2235 X197.692 Y-8.161
N2240 X197.163 Y-7.792
N2245 X196.612 Y-7.456
N2250 X196.042 Y-7.156
N2255 X195.454 Y-6.891
N2260 X194.851 Y-6.663
N2265 X194.235 Y-6.472
N2270 X193.608 Y-6.321
N2275 X192.973 Y-6.208
N2280 X192.332 Y-6.135
N2285 X191.688 Y-6.102
N2290 X191.043 Y-6.109
N2295 X190.4 Y-6.156
N2300 X189.761 Y-6.243
N2305 X189.128 Y-6.369
N2310 X188.505 Y-6.534
N2315 X187.893 Y-6.737
N2320 X187.295 Y-6.978
N2325 X186.713 Y-7.255
N2330 X186.149 Y-7.569
N2335 X185.605 Y-7.916
N2340 X185.085 Y-8.296
N2345 X184.588 Y-8.708
N2350 X184.119 Y-9.15
N2355 X183.677 Y-9.62
N2360 X183.266 Y-10.117
N2365 X182.886 Y-10.638
N2370 X182.539 Y-11.182
N2375 X182.227 Y-11.746
N2380 X181.95 Y-12.328
N2385 X181.71 Y-12.927
N2390 X181.507 Y-13.539
N2395 X181.343 Y-14.163
N2400 X181.217 Y-14.795
N2405 X181.132 Y-15.435
N2410 X181.085 Y-16.078
N2415 X181.079 Y-16.723
N2420 X181.078 Y-16.789 Z-5.292
N2425 Y-16.853 Z-5.27
N2430 X181.077 Y-16.91 Z-5.235
N2435 Y-16.957 Z-5.187
N2440 X181.076 Y-16.993 Z-5.13
N2445 Y-17.015 Z-5.067
N2450 Y-17.023 Z-5.
N2455 Z5.
N2460 G0 X213.874 Y-21.244
N2465 G1 Z-3.3 F0.
N2470 Z-5.
N2475 X213.871 Y-21.251 Z-5.067
N2480 X213.864 Y-21.272 Z-5.13
N2485 X213.852 Y-21.305 Z-5.187
N2490 X213.837 Y-21.35 Z-5.235
N2495 X213.818 Y-21.404 Z-5.27
N2500 X213.797 Y-21.464 Z-5.292
N2505 X213.775 Y-21.527 Z-5.3
N2510 X213.618 Y-21.978
N2515 X213.499 Y-22.44
N2520 X213.419 Y-22.911
N2525 X213.379 Y-23.386
N2530 X213.38 Y-23.864
N2535 X213.419 Y-24.34
N2540 X213.499 Y-24.81
N2545 X213.618 Y-25.273
N2550 X213.775 Y-25.724
N2555 X213.969 Y-26.16
N2560 X214.199 Y-26.578
N2565 X214.463 Y-26.976
N2570 X214.76 Y-27.35
N2575 X215.087 Y-27.698
N2580 X215.441 Y-28.017
N2585 X215.822 Y-28.306
N2590 X216.225 Y-28.562
N2595 X216.648 Y-28.783
N2600 X217.088 Y-28.968
N2605 X217.542 Y-29.115
N2610 X218.007 Y-29.224
N2615 X218.479 Y-29.294
N2620 X218.955 Y-29.324
N2625 X219.433 Y-29.314
N2630 X219.908 Y-29.264
N2635 X220.376 Y-29.174
N2640 X220.836 Y-29.046
N2645 X221.284 Y-28.879
N2650 X221.716 Y-28.676
N2655 X222.129 Y-28.438
N2660 X222.521 Y-28.165
N2665 X222.889 Y-27.861
N2670 X223.23 Y-27.527
N2675 X223.542 Y-27.165
N2680 X223.822 Y-26.779
N2685 X224.07 Y-26.371
N2690 X224.282 Y-25.943
N2695 X224.458 Y-25.499
N2700 X224.596 Y-25.042
N2705 X224.695 Y-24.575
N2710 X224.755 Y-24.101
N2715 X224.774 Y-23.625
N2720 X224.755 Y-23.148
N2725 X224.695 Y-22.674
N2730 X224.595 Y-22.207
N2735 X224.457 Y-21.75
N2740 X224.282 Y-21.307
N2745 X224.069 Y-20.879
N2750 X223.822 Y-20.471
N2755 X223.542 Y-20.084
N2760 X223.23 Y-19.723
N2765 X222.888 Y-19.389
N2770 X222.521 Y-19.085
N2775 X222.129 Y-18.812
N2780 X221.715 Y-18.574
N2785 X221.283 Y-18.37
N2790 X220.836 Y-18.204
N2795 X220.376 Y-18.076
N2800 X219.907 Y-17.986
N2805 X219.432 Y-17.936
N2810 X218.955 Y-17.926
N2815 X218.479 Y-17.956
N2820 X218.006 Y-18.026
N2825 X217.542 Y-18.135
N2830 X217.087 Y-18.282
N2835 X216.647 Y-18.468
N2840 X216.224 Y-18.689
N2845 X215.821 Y-18.944
N2850 X215.441 Y-19.233
N2855 X215.086 Y-19.553
N2860 X214.76 Y-19.901
N2865 X214.463 Y-20.275
N2870 X214.199 Y-20.672
N2875 X213.969 Y-21.091
N2880 X213.775 Y-21.527
N2885 X213.748 Y-21.588 Z-5.292
N2890 X213.722 Y-21.646 Z-5.27
N2895 X213.699 Y-21.698 Z-5.235
N2900 X213.68 Y-21.741 Z-5.187
N2905 X213.665 Y-21.774 Z-5.13
N2910 X213.656 Y-21.794 Z-5.067
N2915 X213.653 Y-21.801 Z-5.
N2920 Z5.
N2925 G0 X234.378 Y-23.087
N2930 G1 Z-3.3 F0.
N2935 Z-5.
N2940 Y-23.094 Z-5.067
N2945 Y-23.116 Z-5.13
N2950 X234.379 Y-23.152 Z-5.187
N2955 Y-23.199 Z-5.235
N2960 Y-23.256 Z-5.27
N2965 Y-23.32 Z-5.292
N2970 Y-23.386 Z-5.3
N2975 X234.38 Y-23.864
N2980 X234.419 Y-24.34
N2985 X234.499 Y-24.81
N2990 X234.618 Y-25.273
N2995 X234.775 Y-25.724
N3000 X234.969 Y-26.16
N3005 X235.199 Y-26.578
N3010 X235.463 Y-26.976
N3015 X235.76 Y-27.35
N3020 X236.087 Y-27.698
N3025 X236.441 Y-28.017
N3030 X236.822 Y-28.306
N3035 X237.225 Y-28.562
N3040 X237.648 Y-28.783
N3045 X238.088 Y-28.968
N3050 X238.542 Y-29.115
N3055 X239.007 Y-29.224
N3060 X239.479 Y-29.294
N3065 X239.955 Y-29.324
N3070 X240.433 Y-29.314
N3075 X240.908 Y-29.264
N3080 X241.376 Y-29.174
N3085 X241.836 Y-29.046
N3090 X242.284 Y-28.879
N3095 X242.716 Y-28.676
N3100 X243.129 Y-28.438
N3105 X243.521 Y-28.165
N3110 X243.889 Y-27.861
N3115 X244.23 Y-27.527
N3120 X244.542 Y-27.165
N3125 X244.822 Y-26.779
N3130 X245.07 Y-26.371
N3135 X245.282 Y-25.943
N3140 X245.458 Y-25.499
N3145 X245.596 Y-25.042
N3150 X245.695 Y-24.575
N3155 X245.755 Y-24.101
N3160 X245.774 Y-23.625
N3165 X245.755 Y-23.148
N3170 X245.695 Y-22.674
N3175 X245.595 Y-22.207
N3180 X245.457 Y-21.75
N3185 X245.282 Y-21.307
N3190 X245.069 Y-20.879
N3195 X244.822 Y-20.471
N3200 X244.542 Y-20.084
N3205 X244.23 Y-19.723
N3210 X243.888 Y-19.389
N3215 X243.521 Y-19.085
N3220 X243.129 Y-18.812
N3225 X242.715 Y-18.574
N3230 X242.283 Y-18.37
N3235 X241.836 Y-18.204
N3240 X241.376 Y-18.076
N3245 X240.907 Y-17.986
N3250 X240.432 Y-17.936
N3255 X239.955 Y-17.926
N3260 X239.479 Y-17.956
N3265 X239.006 Y-18.026
N3270 X238.542 Y-18.135
N3275 X238.087 Y-18.282
N3280 X237.647 Y-18.468
N3285 X237.224 Y-18.689
N3290 X236.821 Y-18.944
N3295 X236.441 Y-19.233
N3300 X236.086 Y-19.553
N3305 X235.76 Y-19.901
N3310 X235.463 Y-20.275
N3315 X235.199 Y-20.672
N3320 X234.969 Y-21.091
N3325 X234.775 Y-21.527
N3330 X234.618 Y-21.978
N3335 X234.499 Y-22.44
N3340 X234.419 Y-22.911
N3345 X234.379 Y-23.386
N3350 X234.373 Y-23.453 Z-5.292
N3355 X234.368 Y-23.516 Z-5.27
N3360 X234.363 Y-23.573 Z-5.235
N3365 X234.359 Y-23.62 Z-5.187
N3370 X234.356 Y-23.656 Z-5.13
N3375 X234.354 Y-23.678 Z-5.067
N3380 Y-23.685 Z-5.
N3385 Z5.
N3390 G0 X259.561 Y-18.982
N3395 G1 Z-3.3 F0.
N3400 Z-5.
N3405 X259.563 Y-18.99 Z-5.067
N3410 X259.57 Y-19.011 Z-5.13
N3415 X259.581 Y-19.045 Z-5.187
N3420 X259.595 Y-19.09 Z-5.235
N3425 X259.611 Y-19.145 Z-5.27
N3430 X259.63 Y-19.205 Z-5.292
N3435 X259.65 Y-19.269 Z-5.3
N3440 X259.841 Y-19.885
N3445 X260.069 Y-20.488
N3450 X260.335 Y-21.076
N3455 X260.637 Y-21.646
N3460 X260.973 Y-22.196
N3465 X261.343 Y-22.724
N3470 X261.745 Y-23.229
N3475 X262.177 Y-23.707
N3480 X262.638 Y-24.158
N3485 X263.126 Y-24.58
N3490 X263.64 Y-24.97
N3495 X264.176 Y-25.328
N3500 X264.734 Y-25.652
N3505 X265.311 Y-25.94
N3510 X265.904 Y-26.192
N3515 X266.512 Y-26.407
N3520 X267.132 Y-26.584
N3525 X267.762 Y-26.723
N3530 X268.399 Y-26.822
N3535 X269.042 Y-26.881
N3540 X269.686 Y-26.9
N3545 X270.331 Y-26.879
N3550 X270.973 Y-26.819
N3555 X271.61 Y-26.718
N3560 X272.239 Y-26.579
N3565 X272.859 Y-26.4
N3570 X273.467 Y-26.184
N3575 X274.06 Y-25.93
N3580 X274.636 Y-25.64
N3585 X275.193 Y-25.315
N3590 X275.728 Y-24.956
N3595 X276.241 Y-24.565
N3600 X276.728 Y-24.142
N3605 X277.188 Y-23.691
N3610 X277.619 Y-23.211
N3615 X278.02 Y-22.706
N3620 X278.389 Y-22.177
N3625 X278.724 Y-21.625
N3630 X279.024 Y-21.055
N3635 X279.288 Y-20.466
N3640 X279.516 Y-19.863
N3645 X279.705 Y-19.247
N3650 X279.856 Y-18.619
N3655 X279.968 Y-17.984
N3660 X280.04 Y-17.344
N3665 X280.073 Y-16.699
N3670 X280.074 Y-16.5
N3675 X280.054 Y-15.855
N3680 X279.995 Y-15.213
N3685 X279.895 Y-14.576
N3690 X279.756 Y-13.946
N3695 X279.578 Y-13.326
N3700 X279.363 Y-12.719
N3705 X279.11 Y-12.125
N3710 X278.82 Y-11.549
N3715 X278.496 Y-10.992
N3720 X278.138 Y-10.456
N3725 X277.747 Y-9.943
N3730 X277.325 Y-9.455
N3735 X276.873 Y-8.994
N3740 X276.394 Y-8.563
N3745 X275.889 Y-8.161
N3750 X275.361 Y-7.792
N3755 X274.81 Y-7.456
N3760 X274.24 Y-7.156
N3765 X273.652 Y-6.891
N3770 X273.048 Y-6.663
N3775 X272.432 Y-6.472
N3780 X271.805 Y-6.321
N3785 X271.17 Y-6.208
N3790 X270.53 Y-6.135
N3795 X269.886 Y-6.102
N3800 X269.241 Y-6.109
N3805 X268.598 Y-6.156
N3810 X267.958 Y-6.243
N3815 X267.326 Y-6.369
N3820 X266.703 Y-6.534
N3825 X266.091 Y-6.737
N3830 X265.492 Y-6.978
N3835 X264.91 Y-7.255
N3840 X264.346 Y-7.569
N3845 X263.803 Y-7.916
N3850 X263.282 Y-8.296
N3855 X262.786 Y-8.708
N3860 X262.316 Y-9.15
N3865 X261.875 Y-9.62
N3870 X261.464 Y-10.117
N3875 X261.084 Y-10.638
N3880 X260.737 Y-11.182
N3885 X260.425 Y-11.746
N3890 X260.148 Y-12.328
N3895 X259.908 Y-12.927
N3900 X259.705 Y-13.539
N3905 X259.54 Y-14.163
N3910 X259.415 Y-14.795
N3915 X259.329 Y-15.435
N3920 X259.283 Y-16.078
N3925 X259.277 Y-16.723
N3930 X259.311 Y-17.367
N3935 X259.384 Y-18.007
N3940 X259.498 Y-18.642
N3945 X259.65 Y-19.269
N3950 X259.666 Y-19.334 Z-5.292
N3955 X259.681 Y-19.395 Z-5.27
N3960 X259.694 Y-19.451 Z-5.235
N3965 X259.705 Y-19.497 Z-5.187
N3970 X259.714 Y-19.532 Z-5.13
N3975 X259.719 Y-19.553 Z-5.067
N3980 X259.721 Y-19.561 Z-5.
N3985 Z5.
N3990 G0 X287.261 Y-16.423
N3995 G1 Z-3.3 F0.
N4000 Z-5.
N4005 X287.262 Y-16.431 Z-5.067
N4010 X287.263 Y-16.453 Z-5.13
N4015 X287.265 Y-16.488 Z-5.187
N4020 X287.267 Y-16.536 Z-5.235
N4025 X287.27 Y-16.593 Z-5.27
N4030 X287.273 Y-16.656 Z-5.292
N4035 X287.277 Y-16.723 Z-5.3
N4040 X287.311 Y-17.367
N4045 X287.384 Y-18.007
N4050 X287.498 Y-18.642
N4055 X287.65 Y-19.269
N4060 X287.841 Y-19.885
N4065 X288.069 Y-20.488
N4070 X288.335 Y-21.076
N4075 X288.637 Y-21.646
N4080 X288.973 Y-22.196
N4085 X289.343 Y-22.724
N4090 X289.745 Y-23.229
N4095 X290.177 Y-23.707
N4100 X290.638 Y-24.158
N4105 X291.126 Y-24.58
N4110 X291.64 Y-24.97
N4115 X292.176 Y-25.328
N4120 X292.734 Y-25.652
N4125 X293.311 Y-25.94
N4130 X293.904 Y-26.192
N4135 X294.512 Y-26.407
N4140 X295.132 Y-26.584
N4145 X295.762 Y-26.723
N4150 X296.399 Y-26.822
N4155 X297.042 Y-26.881
N4160 X297.686 Y-26.9
N4165 X298.331 Y-26.879
N4170 X298.973 Y-26.819
N4175 X299.61 Y-26.718
N4180 X300.239 Y-26.579
N4185 X300.859 Y-26.4
N4190 X301.467 Y-26.184
N4195 X302.06 Y-25.93
N4200 X302.636 Y-25.64
N4205 X303.193 Y-25.315
N4210 X303.728 Y-24.956
N4215 X304.241 Y-24.565
N4220 X304.728 Y-24.142
N4225 X305.188 Y-23.691
N4230 X305.619 Y-23.211
N4235 X306.02 Y-22.706
N4240 X306.389 Y-22.177
N4245 X306.724 Y-21.625
N4250 X307.024 Y-21.055
N4255 X307.288 Y-20.466
N4260 X307.516 Y-19.863
N4265 X307.705 Y-19.247
N4270 X307.856 Y-18.619
N4275 X307.968 Y-17.984
N4280 X308.04 Y-17.344
N4285 X308.073 Y-16.699
N4290 X308.074 Y-16.5
N4295 X308.054 Y-15.855
N4300 X307.995 Y-15.213
N4305 X307.895 Y-14.576
N4310 X307.756 Y-13.946
N4315 X307.578 Y-13.326
N4320 X307.363 Y-12.719
N4325 X307.11 Y-12.125
N4330 X306.82 Y-11.549
N4335 X306.496 Y-10.992
N4340 X306.138 Y-10.456
N4345 X305.747 Y-9.943
N4350 X305.325 Y-9.455
N4355 X304.873 Y-8.994
N4360 X304.394 Y-8.563
N4365 X303.889 Y-8.161
N4370 X303.361 Y-7.792
N4375 X302.81 Y-7.456
N4380 X302.24 Y-7.156
N4385 X301.652 Y-6.891
N4390 X301.048 Y-6.663
N4395 X300.432 Y-6.472
N4400 X299.805 Y-6.321
N4405 X299.17 Y-6.208
N4410 X298.53 Y-6.135
N4415 X297.886 Y-6.102
N4420 X297.241 Y-6.109
N4425 X296.598 Y-6.156
N4430 X295.958 Y-6.243
N4435 X295.326 Y-6.369
N4440 X294.703 Y-6.534
N4445 X294.091 Y-6.737
N4450 X293.492 Y-6.978
N4455 X292.91 Y-7.255
N4460 X292.346 Y-7.569
N4465 X291.803 Y-7.916
N4470 X291.282 Y-8.296
N4475 X290.786 Y-8.708
N4480 X290.316 Y-9.15
N4485 X289.875 Y-9.62
N4490 X289.464 Y-10.117
N4495 X289.084 Y-10.638
N4500 X288.737 Y-11.182
N4505 X288.425 Y-11.746
N4510 X288.148 Y-12.328
N4515 X287.908 Y-12.927
N4520 X287.705 Y-13.539
N4525 X287.54 Y-14.163
N4530 X287.415 Y-14.795
N4535 X287.329 Y-15.435
N4540 X287.283 Y-16.078
N4545 X287.277 Y-16.723
N4550 X287.276 Y-16.789 Z-5.292
N4555 Y-16.853 Z-5.27
N4560 X287.275 Y-16.91 Z-5.235
N4565 Y-16.957 Z-5.187
N4570 X287.274 Y-16.993 Z-5.13
N4575 Y-17.015 Z-5.067
N4580 Y-17.023 Z-5.
N4585 Z5.
N4590 G0 X333.061 Y-16.423
N4595 G1 Z-3.3 F0.
N4600 Z-5.
N4605 X333.062 Y-16.431 Z-5.067
N4610 X333.063 Y-16.453 Z-5.13
N4615 X333.065 Y-16.488 Z-5.187
N4620 X333.067 Y-16.536 Z-5.235
N4625 X333.07 Y-16.593 Z-5.27
N4630 X333.073 Y-16.656 Z-5.292
N4635 X333.077 Y-16.723 Z-5.3
N4640 X333.111 Y-17.367
N4645 X333.184 Y-18.007
N4650 X333.298 Y-18.642
N4655 X333.45 Y-19.269
N4660 X333.641 Y-19.885
N4665 X333.869 Y-20.488
N4670 X334.135 Y-21.076
N4675 X334.437 Y-21.646
N4680 X334.773 Y-22.196
N4685 X335.143 Y-22.724
N4690 X335.545 Y-23.229
N4695 X335.977 Y-23.707
N4700 X336.438 Y-24.158
N4705 X336.926 Y-24.58
N4710 X337.44 Y-24.97
N4715 X337.976 Y-25.328
N4720 X338.534 Y-25.652
N4725 X339.111 Y-25.94
N4730 X339.704 Y-26.192
N4735 X340.312 Y-26.407
N4740 X340.932 Y-26.584
N4745 X341.562 Y-26.723
N4750 X342.199 Y-26.822
N4755 X342.842 Y-26.881
N4760 X343.486 Y-26.9
N4765 X344.131 Y-26.879
N4770 X344.773 Y-26.819
N4775 X345.41 Y-26.718
N4780 X346.039 Y-26.579
N4785 X346.659 Y-26.4
N4790 X347.267 Y-26.184
N4795 X347.86 Y-25.93
N4800 X348.436 Y-25.64
N4805 X348.993 Y-25.315
N4810 X349.528 Y-24.956
N4815 X350.041 Y-24.565
N4820 X350.528 Y-24.142
N4825 X350.988 Y-23.691
N4830 X351.419 Y-23.211
N4835 X351.82 Y-22.706
N4840 X352.189 Y-22.177
N4845 X352.524 Y-21.625
N4850 X352.824 Y-21.055
N4855 X353.088 Y-20.466
N4860 X353.316 Y-19.863
N4865 X353.505 Y-19.247
N4870 X353.656 Y-18.619
N4875 X353.768 Y-17.984
N4880 X353.84 Y-17.344
N4885 X353.873 Y-16.699
N4890 X353.874 Y-16.5
N4895 X353.854 Y-15.855
N4900 X353.795 Y-15.213
N4905 X353.695 Y-14.576
N4910 X353.556 Y-13.946
N4915 X353.378 Y-13.326
N4920 X353.163 Y-12.719
N4925 X352.91 Y-12.125
N4930 X352.62 Y-11.549
N4935 X352.296 Y-10.992
N4940 X351.938 Y-10.456
N4945 X351.547 Y-9.943
N4950 X351.125 Y-9.455
N4955 X350.673 Y-8.994
N4960 X350.194 Y-8.563
N4965 X349.689 Y-8.161
N4970 X349.161 Y-7.792
N4975 X348.61 Y-7.456
N4980 X348.04 Y-7.156
N4985 X347.452 Y-6.891
N4990 X346.848 Y-6.663
N4995 X346.232 Y-6.472
N5000 X345.605 Y-6.321
N5005 X344.97 Y-6.208
N5010 X344.33 Y-6.135
N5015 X343.686 Y-6.102
N5020 X343.041 Y-6.109
N5025 X342.398 Y-6.156
N5030 X341.758 Y-6.243
N5035 X341.126 Y-6.369
N5040 X340.503 Y-6.534
N5045 X339.891 Y-6.737
N5050 X339.292 Y-6.978
N5055 X338.71 Y-7.255
N5060 X338.146 Y-7.569
N5065 X337.603 Y-7.916
N5070 X337.082 Y-8.296
N5075 X336.586 Y-8.708
N5080 X336.116 Y-9.15
N5085 X335.675 Y-9.62
N5090 X335.264 Y-10.117
N5095 X334.884 Y-10.638
N5100 X334.537 Y-11.182
N5105 X334.225 Y-11.746
N5110 X333.948 Y-12.328
N5115 X333.708 Y-12.927
N5120 X333.505 Y-13.539
N5125 X333.34 Y-14.163
N5130 X333.215 Y-14.795
N5135 X333.129 Y-15.435
N5140 X333.083 Y-16.078
N5145 X333.077 Y-16.723
N5150 X333.076 Y-16.789 Z-5.292
N5155 Y-16.853 Z-5.27
N5160 X333.075 Y-16.91 Z-5.235
N5165 Y-16.957 Z-5.187
N5170 X333.074 Y-16.993 Z-5.13
N5175 Y-17.015 Z-5.067
N5180 Y-17.023 Z-5.
N5185 Z5.
N5190 G0 X378.861 Y-16.423
N5195 G1 Z-3.3 F0.
N5200 Z-5.
N5205 X378.862 Y-16.431 Z-5.067
N5210 X378.863 Y-16.453 Z-5.13
N5215 X378.865 Y-16.488 Z-5.187
N5220 X378.867 Y-16.536 Z-5.235
N5225 X378.87 Y-16.593 Z-5.27
N5230 X378.873 Y-16.656 Z-5.292
N5235 X378.877 Y-16.723 Z-5.3
N5240 X378.911 Y-17.367
N5245 X378.984 Y-18.007
N5250 X379.098 Y-18.642
N5255 X379.25 Y-19.269
N5260 X379.441 Y-19.885
N5265 X379.669 Y-20.488
N5270 X379.935 Y-21.076
N5275 X380.237 Y-21.646
N5280 X380.573 Y-22.196
N5285 X380.943 Y-22.724
N5290 X381.345 Y-23.229
N5295 X381.777 Y-23.707
N5300 X382.238 Y-24.158
N5305 X382.726 Y-24.58
N5310 X383.24 Y-24.97
N5315 X383.776 Y-25.328
N5320 X384.334 Y-25.652
N5325 X384.911 Y-25.94
N5330 X385.504 Y-26.192
N5335 X386.112 Y-26.407
N5340 X386.732 Y-26.584
N5345 X387.362 Y-26.723
N5350 X387.999 Y-26.822
N5355 X388.642 Y-26.881
N5360 X389.286 Y-26.9
N5365 X389.931 Y-26.879
N5370 X390.573 Y-26.819
N5375 X391.21 Y-26.718
N5380 X391.839 Y-26.579
N5385 X392.459 Y-26.4
N5390 X393.067 Y-26.184
N5395 X393.66 Y-25.93
N5400 X394.236 Y-25.64
N5405 X394.793 Y-25.315
N5410 X395.328 Y-24.956
N5415 X395.841 Y-24.565
N5420 X396.328 Y-24.142
N5425 X396.788 Y-23.691
N5430 X397.219 Y-23.211
N5435 X397.62 Y-22.706
N5440 X397.989 Y-22.177
N5445 X398.324 Y-21.625
N5450 X398.624 Y-21.055
N5455 X398.888 Y-20.466
N5460 X399.116 Y-19.863
N5465 X399.305 Y-19.247
N5470 X399.456 Y-18.619
N5475 X399.568 Y-17.984
N5480 X399.64 Y-17.344
N5485 X399.673 Y-16.699
N5490 X399.674 Y-16.5
N5495 X399.654 Y-15.855
N5500 X399.595 Y-15.213
N5505 X399.495 Y-14.576
N5510 X399.356 Y-13.946
N5515 X399.178 Y-13.326
N5520 X398.963 Y-12.719
N5525 X398.71 Y-12.125
N5530 X398.42 Y-11.549
N5535 X398.096 Y-10.992
N5540 X397.738 Y-10.456
N5545 X397.347 Y-9.943
N5550 X396.925 Y-9.455
N5555 X396.473 Y-8.994
N5560 X395.994 Y-8.563
N5565 X395.489 Y-8.161
N5570 X394.961 Y-7.792
N5575 X394.41 Y-7.456
N5580 X393.84 Y-7.156
N5585 X393.252 Y-6.891
N5590 X392.648 Y-6.663
N5595 X392.032 Y-6.472
N5600 X391.405 Y-6.321
N5605 X390.77 Y-6.208
N5610 X390.13 Y-6.135
N5615 X389.486 Y-6.102
N5620 X388.841 Y-6.109
N5625 X388.198 Y-6.156
N5630 X387.558 Y-6.243
N5635 X386.926 Y-6.369
N5640 X386.303 Y-6.534
N5645 X385.691 Y-6.737
N5650 X385.092 Y-6.978
N5655 X384.51 Y-7.255
N5660 X383.946 Y-7.569
N5665 X383.403 Y-7.916
N5670 X382.882 Y-8.296
N5675 X382.386 Y-8.708
N5680 X381.916 Y-9.15
N5685 X381.475 Y-9.62
N5690 X381.064 Y-10.117
N5695 X380.684 Y-10.638
N5700 X380.337 Y-11.182
N5705 X380.025 Y-11.746
N5710 X379.748 Y-12.328
N5715 X379.508 Y-12.927
N5720 X379.305 Y-13.539
N5725 X379.14 Y-14.163
N5730 X379.015 Y-14.795
N5735 X378.929 Y-15.435
N5740 X378.883 Y-16.078
N5745 X378.877 Y-16.723
N5750 X378.876 Y-16.789 Z-5.292
N5755 Y-16.853 Z-5.27
N5760 X378.875 Y-16.91 Z-5.235
N5765 Y-16.957 Z-5.187
N5770 X378.874 Y-16.993 Z-5.13
N5775 Y-17.015 Z-5.067
N5780 Y-17.023 Z-5.
N5785 Z5.
N5790 G17
N5795 M9
N5800 G53 G0 Z0.
N5805 M30
%
