%
(1URACK_BACKPANELG)
(T1  D=3. CR=0. TAPER=118DEG - ZMIN=-5.3 - DRILL)
N10 G90 G94 G17 G91.1
N15 G21
N20 G53 G0 Z0.
(DRILL2)
N25 M9
N30 T1 M6
N35 S4500 M3
N40 G54
N45 M9
N55 G0 X27.5 Y-16.5
N60 G43 Z15. H1
N70 G0 Z5.
N75 G98 G81 X27.5 Y-16.5 Z-5. R4. F1000.
N80 X85.
N85 X152.984 Y-28.4
N90 X180.984
N95 X172.984 Y-4.6
N100 X200.984
N105 X259.181 Y-28.4
N110 X287.181
N115 X279.181 Y-4.6
N120 X307.181
N125 X332.981 Y-28.4
N130 X352.981 Y-4.6
N135 X378.781 Y-28.4
N140 X398.781 Y-4.6
N145 G80
N150 G0 Z15.
(TRACE1)
N160 M9
N165 G0 X35.15 Y-4.95
N170 Z2.5
N175 Z0.
N180 G1 Z-3.3 F0.
N185 Z-5.
N190 G18 G2 X35.45 Z-5.3 I0.3 K0.
N195 G1 X77.05
N200 X77.332 Y-4.97
N205 X77.608 Y-5.03
N210 X77.873 Y-5.127
N215 X78.122 Y-5.262
N220 X78.35 Y-5.43
N225 X78.551 Y-5.628
N230 X78.722 Y-5.853
N235 X78.86 Y-6.1
N240 X78.962 Y-6.363
N245 X79.026 Y-6.639
N250 X79.05 Y-6.92
N255 Y-6.95
N260 Y-27.55
N265 X79.03 Y-27.832
N270 X78.97 Y-28.108
N275 X78.873 Y-28.374
N280 X78.738 Y-28.622
N285 X78.57 Y-28.85
N290 X78.372 Y-29.051
N295 X78.147 Y-29.222
N300 X77.9 Y-29.36
N305 X77.637 Y-29.462
N310 X77.361 Y-29.526
N315 X77.08 Y-29.55
N320 X77.05
N325 X35.45
N330 X35.168 Y-29.53
N335 X34.892 Y-29.471
N340 X34.626 Y-29.373
N345 X34.378 Y-29.238
N350 X34.151 Y-29.07
N355 X33.949 Y-28.872
N360 X33.778 Y-28.647
N365 X33.64 Y-28.4
N370 X33.538 Y-28.137
N375 X33.474 Y-27.861
N380 X33.45 Y-27.58
N385 Y-27.55
N390 Y-6.95
N395 X33.47 Y-6.668
N400 X33.529 Y-6.392
N405 X33.627 Y-6.127
N410 X33.762 Y-5.878
N415 X33.93 Y-5.65
N420 X34.128 Y-5.449
N425 X34.353 Y-5.278
N430 X34.6 Y-5.14
N435 X34.863 Y-5.038
N440 X35.139 Y-4.974
N445 X35.42 Y-4.95
N450 X35.45
N455 X35.517 Z-5.292
N460 X35.58 Y-4.949 Z-5.27
N465 X35.637 Z-5.235
N470 X35.685 Y-4.948 Z-5.187
N475 X35.72 Z-5.13
N480 X35.742 Z-5.067
N485 X35.75 Z-5.
N490 Z0.
N495 G0 X108.164 Y-22.037
N500 G1 Z-3.3 F0.
N505 Z-5.
N510 X108.163 Y-22.044 Z-5.067
N515 X108.158 Y-22.066 Z-5.13
N520 X108.15 Y-22.101 Z-5.187
N525 X108.14 Y-22.147 Z-5.235
N530 X108.127 Y-22.203 Z-5.27
N535 X108.114 Y-22.265 Z-5.292
N540 X108.099 Y-22.33 Z-5.3
N545 X108.002 Y-22.764
N550 X107.945 Y-23.205
N555 X107.927 Y-23.649
N560 X107.949 Y-24.094
N565 X108.011 Y-24.534
N570 X108.112 Y-24.967
N575 X108.252 Y-25.39
N580 X108.429 Y-25.798
N585 X108.642 Y-26.188
N590 X108.889 Y-26.558
N595 X109.169 Y-26.904
N600 X109.478 Y-27.224
N605 X109.815 Y-27.515
N610 X110.177 Y-27.774
N615 X110.56 Y-27.999
N620 X110.962 Y-28.19
N625 X111.38 Y-28.343
N630 X111.809 Y-28.458
N635 X112.248 Y-28.535
N640 X112.691 Y-28.572
N645 X113.136 Y-28.568
N650 X113.579 Y-28.525
N655 X114.016 Y-28.442
N660 X114.444 Y-28.32
N665 X114.859 Y-28.161
N670 X115.258 Y-27.965
N675 X115.638 Y-27.733
N680 X115.996 Y-27.469
N685 X116.328 Y-27.173
N690 X116.633 Y-26.849
N695 X116.907 Y-26.499
N700 X117.149 Y-26.125
N705 X117.356 Y-25.732
N710 X117.527 Y-25.321
N715 X117.661 Y-24.897
N720 X117.756 Y-24.462
N725 X117.811 Y-24.021
N730 X117.827 Y-23.625
N735 X117.807 Y-23.181
N740 X117.747 Y-22.74
N745 X117.648 Y-22.306
N750 X117.51 Y-21.883
N755 X117.335 Y-21.474
N760 X117.124 Y-21.083
N765 X116.879 Y-20.712
N770 X116.601 Y-20.364
N775 X116.293 Y-20.043
N780 X115.958 Y-19.751
N785 X115.597 Y-19.49
N790 X115.215 Y-19.262
N795 X114.814 Y-19.07
N800 X114.397 Y-18.914
N805 X113.968 Y-18.797
N810 X113.53 Y-18.718
N815 X113.087 Y-18.68
N820 X112.642 Y-18.681
N825 X112.199 Y-18.722
N830 X111.762 Y-18.802
N835 X111.333 Y-18.922
N840 X110.917 Y-19.079
N845 X110.517 Y-19.274
N850 X110.136 Y-19.503
N855 X109.777 Y-19.766
N860 X109.443 Y-20.06
N865 X109.137 Y-20.382
N870 X108.861 Y-20.731
N875 X108.617 Y-21.104
N880 X108.408 Y-21.496
N885 X108.235 Y-21.906
N890 X108.099 Y-22.33
N895 X108.079 Y-22.393 Z-5.292
N900 X108.059 Y-22.454 Z-5.27
N905 X108.042 Y-22.508 Z-5.235
N910 X108.027 Y-22.553 Z-5.187
N915 X108.016 Y-22.587 Z-5.13
N920 X108.01 Y-22.608 Z-5.067
N925 X108.007 Y-22.615 Z-5.
N930 Z0.
N935 G0 X128.912 Y-23.35
N940 G1 Z-3.3 F0.
N945 Z-5.
N950 X128.913 Y-23.357 Z-5.067
N955 X128.914 Y-23.379 Z-5.13
N960 X128.915 Y-23.415 Z-5.187
N965 X128.918 Y-23.463 Z-5.235
N970 X128.921 Y-23.519 Z-5.27
N975 X128.924 Y-23.583 Z-5.292
N980 X128.927 Y-23.649 Z-5.3
N985 X128.949 Y-24.094
N990 X129.011 Y-24.534
N995 X129.112 Y-24.967
N1000 X129.252 Y-25.39
N1005 X129.429 Y-25.798
N1010 X129.642 Y-26.188
N1015 X129.889 Y-26.558
N1020 X130.169 Y-26.904
N1025 X130.478 Y-27.224
N1030 X130.815 Y-27.515
N1035 X131.177 Y-27.774
N1040 X131.56 Y-27.999
N1045 X131.962 Y-28.19
N1050 X132.38 Y-28.343
N1055 X132.809 Y-28.458
N1060 X133.248 Y-28.535
N1065 X133.691 Y-28.572
N1070 X134.136 Y-28.568
N1075 X134.579 Y-28.525
N1080 X135.016 Y-28.442
N1085 X135.444 Y-28.32
N1090 X135.859 Y-28.161
N1095 X136.258 Y-27.965
N1100 X136.638 Y-27.733
N1105 X136.996 Y-27.469
N1110 X137.328 Y-27.173
N1115 X137.633 Y-26.849
N1120 X137.907 Y-26.499
N1125 X138.149 Y-26.125
N1130 X138.356 Y-25.732
N1135 X138.527 Y-25.321
N1140 X138.661 Y-24.897
N1145 X138.756 Y-24.462
N1150 X138.811 Y-24.021
N1155 X138.827 Y-23.625
N1160 X138.807 Y-23.181
N1165 X138.747 Y-22.74
N1170 X138.648 Y-22.306
N1175 X138.51 Y-21.883
N1180 X138.335 Y-21.474
N1185 X138.124 Y-21.083
N1190 X137.879 Y-20.712
N1195 X137.601 Y-20.364
N1200 X137.293 Y-20.043
N1205 X136.958 Y-19.751
N1210 X136.597 Y-19.49
N1215 X136.215 Y-19.262
N1220 X135.814 Y-19.07
N1225 X135.397 Y-18.914
N1230 X134.968 Y-18.797
N1235 X134.53 Y-18.718
N1240 X134.087 Y-18.68
N1245 X133.642 Y-18.681
N1250 X133.199 Y-18.722
N1255 X132.762 Y-18.802
N1260 X132.333 Y-18.922
N1265 X131.917 Y-19.079
N1270 X131.517 Y-19.274
N1275 X131.136 Y-19.503
N1280 X130.777 Y-19.766
N1285 X130.443 Y-20.06
N1290 X130.137 Y-20.382
N1295 X129.861 Y-20.731
N1300 X129.617 Y-21.104
N1305 X129.408 Y-21.496
N1310 X129.235 Y-21.906
N1315 X129.099 Y-22.33
N1320 X129.002 Y-22.764
N1325 X128.945 Y-23.205
N1330 X128.927 Y-23.649
N1335 X128.924 Y-23.716 Z-5.292
N1340 X128.922 Y-23.779 Z-5.27
N1345 X128.919 Y-23.836 Z-5.235
N1350 X128.918 Y-23.884 Z-5.187
N1355 X128.916 Y-23.919 Z-5.13
N1360 X128.915 Y-23.942 Z-5.067
N1365 Y-23.949 Z-5.
N1370 Z0.
N1375 G0 X153.363 Y-18.982
N1380 G1 Z-3.3 F0.
N1385 Z-5.
N1390 X153.365 Y-18.99 Z-5.067
N1395 X153.372 Y-19.011 Z-5.13
N1400 X153.383 Y-19.045 Z-5.187
N1405 X153.397 Y-19.09 Z-5.235
N1410 X153.413 Y-19.145 Z-5.27
N1415 X153.432 Y-19.205 Z-5.292
N1420 X153.452 Y-19.269 Z-5.3
N1425 X153.643 Y-19.885
N1430 X153.872 Y-20.488
N1435 X154.137 Y-21.076
N1440 X154.439 Y-21.646
N1445 X154.775 Y-22.196
N1450 X155.145 Y-22.724
N1455 X155.547 Y-23.229
N1460 X155.979 Y-23.707
N1465 X156.44 Y-24.158
N1470 X156.928 Y-24.58
N1475 X157.442 Y-24.97
N1480 X157.978 Y-25.328
N1485 X158.536 Y-25.652
N1490 X159.113 Y-25.94
N1495 X159.706 Y-26.192
N1500 X160.314 Y-26.407
N1505 X160.934 Y-26.584
N1510 X161.564 Y-26.723
N1515 X162.202 Y-26.822
N1520 X162.844 Y-26.881
N1525 X163.488 Y-26.9
N1530 X164.133 Y-26.879
N1535 X164.775 Y-26.819
N1540 X165.412 Y-26.718
N1545 X166.042 Y-26.579
N1550 X166.661 Y-26.4
N1555 X167.269 Y-26.184
N1560 X167.862 Y-25.93
N1565 X168.438 Y-25.64
N1570 X168.995 Y-25.315
N1575 X169.531 Y-24.956
N1580 X170.043 Y-24.565
N1585 X170.53 Y-24.142
N1590 X170.991 Y-23.691
N1595 X171.422 Y-23.211
N1600 X171.822 Y-22.706
N1605 X172.191 Y-22.177
N1610 X172.526 Y-21.625
N1615 X172.826 Y-21.055
N1620 X173.091 Y-20.466
N1625 X173.318 Y-19.863
N1630 X173.508 Y-19.247
N1635 X173.659 Y-18.619
N1640 X173.77 Y-17.984
N1645 X173.843 Y-17.344
N1650 X173.875 Y-16.699
N1655 X173.877 Y-16.5
N1660 X173.857 Y-15.855
N1665 X173.797 Y-15.213
N1670 X173.697 Y-14.576
N1675 X173.558 Y-13.946
N1680 X173.381 Y-13.326
N1685 X173.165 Y-12.719
N1690 X172.912 Y-12.125
N1695 X172.623 Y-11.549
N1700 X172.298 Y-10.992
N1705 X171.94 Y-10.456
N1710 X171.549 Y-9.943
N1715 X171.127 Y-9.455
N1720 X170.676 Y-8.994
N1725 X170.197 Y-8.563
N1730 X169.692 Y-8.161
N1735 X169.163 Y-7.792
N1740 X168.612 Y-7.456
N1745 X168.042 Y-7.156
N1750 X167.454 Y-6.891
N1755 X166.851 Y-6.663
N1760 X166.235 Y-6.472
N1765 X165.608 Y-6.321
N1770 X164.973 Y-6.208
N1775 X164.332 Y-6.135
N1780 X163.688 Y-6.102
N1785 X163.043 Y-6.109
N1790 X162.4 Y-6.156
N1795 X161.761 Y-6.243
N1800 X161.128 Y-6.369
N1805 X160.505 Y-6.534
N1810 X159.893 Y-6.737
N1815 X159.295 Y-6.978
N1820 X158.713 Y-7.255
N1825 X158.149 Y-7.569
N1830 X157.605 Y-7.916
N1835 X157.085 Y-8.296
N1840 X156.588 Y-8.708
N1845 X156.119 Y-9.15
N1850 X155.677 Y-9.62
N1855 X155.266 Y-10.117
N1860 X154.886 Y-10.638
N1865 X154.539 Y-11.182
N1870 X154.227 Y-11.746
N1875 X153.95 Y-12.328
N1880 X153.71 Y-12.927
N1885 X153.507 Y-13.539
N1890 X153.343 Y-14.163
N1895 X153.217 Y-14.795
N1900 X153.132 Y-15.435
N1905 X153.085 Y-16.078
N1910 X153.079 Y-16.723
N1915 X153.113 Y-17.367
N1920 X153.187 Y-18.007
N1925 X153.3 Y-18.642
N1930 X153.452 Y-19.269
N1935 X153.468 Y-19.334 Z-5.292
N1940 X153.483 Y-19.395 Z-5.27
N1945 X153.496 Y-19.451 Z-5.235
N1950 X153.507 Y-19.497 Z-5.187
N1955 X153.516 Y-19.532 Z-5.13
N1960 X153.521 Y-19.553 Z-5.067
N1965 X153.523 Y-19.561 Z-5.
N1970 Z0.
N1975 G0 X181.063 Y-16.423
N1980 G1 Z-3.3 F0.
N1985 Z-5.
N1990 X181.064 Y-16.431 Z-5.067
N1995 X181.065 Y-16.453 Z-5.13
N2000 X181.067 Y-16.488 Z-5.187
N2005 X181.069 Y-16.536 Z-5.235
N2010 X181.072 Y-16.593 Z-5.27
N2015 X181.075 Y-16.656 Z-5.292
N2020 X181.079 Y-16.723 Z-5.3
N2025 X181.113 Y-17.367
N2030 X181.187 Y-18.007
N2035 X181.3 Y-18.642
N2040 X181.452 Y-19.269
N2045 X181.643 Y-19.885
N2050 X181.872 Y-20.488
N2055 X182.137 Y-21.076
N2060 X182.439 Y-21.646
N2065 X182.775 Y-22.196
N2070 X183.145 Y-22.724
N2075 X183.547 Y-23.229
N2080 X183.979 Y-23.707
N2085 X184.44 Y-24.158
N2090 X184.928 Y-24.58
N2095 X185.442 Y-24.97
N2100 X185.978 Y-25.328
N2105 X186.536 Y-25.652
N2110 X187.113 Y-25.94
N2115 X187.706 Y-26.192
N2120 X188.314 Y-26.407
N2125 X188.934 Y-26.584
N2130 X189.564 Y-26.723
N2135 X190.202 Y-26.822
N2140 X190.844 Y-26.881
N2145 X191.488 Y-26.9
N2150 X192.133 Y-26.879
N2155 X192.775 Y-26.819
N2160 X193.412 Y-26.718
N2165 X194.042 Y-26.579
N2170 X194.661 Y-26.4
N2175 X195.269 Y-26.184
N2180 X195.862 Y-25.93
N2185 X196.438 Y-25.64
N2190 X196.995 Y-25.315
N2195 X197.531 Y-24.956
N2200 X198.043 Y-24.565
N2205 X198.53 Y-24.142
N2210 X198.991 Y-23.691
N2215 X199.422 Y-23.211
N2220 X199.822 Y-22.706
N2225 X200.191 Y-22.177
N2230 X200.526 Y-21.625
N2235 X200.826 Y-21.055
N2240 X201.091 Y-20.466
N2245 X201.318 Y-19.863
N2250 X201.508 Y-19.247
N2255 X201.659 Y-18.619
N2260 X201.77 Y-17.984
N2265 X201.843 Y-17.344
N2270 X201.875 Y-16.699
N2275 X201.877 Y-16.5
N2280 X201.857 Y-15.855
N2285 X201.797 Y-15.213
N2290 X201.697 Y-14.576
N2295 X201.558 Y-13.946
N2300 X201.381 Y-13.326
N2305 X201.165 Y-12.719
N2310 X200.912 Y-12.125
N2315 X200.623 Y-11.549
N2320 X200.298 Y-10.992
N2325 X199.94 Y-10.456
N2330 X199.549 Y-9.943
N2335 X199.127 Y-9.455
N2340 X198.676 Y-8.994
N2345 X198.197 Y-8.563
N2350 X197.692 Y-8.161
N2355 X197.163 Y-7.792
N2360 X196.612 Y-7.456
N2365 X196.042 Y-7.156
N2370 X195.454 Y-6.891
N2375 X194.851 Y-6.663
N2380 X194.235 Y-6.472
N2385 X193.608 Y-6.321
N2390 X192.973 Y-6.208
N2395 X192.332 Y-6.135
N2400 X191.688 Y-6.102
N2405 X191.043 Y-6.109
N2410 X190.4 Y-6.156
N2415 X189.761 Y-6.243
N2420 X189.128 Y-6.369
N2425 X188.505 Y-6.534
N2430 X187.893 Y-6.737
N2435 X187.295 Y-6.978
N2440 X186.713 Y-7.255
N2445 X186.149 Y-7.569
N2450 X185.605 Y-7.916
N2455 X185.085 Y-8.296
N2460 X184.588 Y-8.708
N2465 X184.119 Y-9.15
N2470 X183.677 Y-9.62
N2475 X183.266 Y-10.117
N2480 X182.886 Y-10.638
N2485 X182.539 Y-11.182
N2490 X182.227 Y-11.746
N2495 X181.95 Y-12.328
N2500 X181.71 Y-12.927
N2505 X181.507 Y-13.539
N2510 X181.343 Y-14.163
N2515 X181.217 Y-14.795
N2520 X181.132 Y-15.435
N2525 X181.085 Y-16.078
N2530 X181.079 Y-16.723
N2535 X181.078 Y-16.789 Z-5.292
N2540 Y-16.853 Z-5.27
N2545 X181.077 Y-16.91 Z-5.235
N2550 Y-16.957 Z-5.187
N2555 X181.076 Y-16.993 Z-5.13
N2560 Y-17.015 Z-5.067
N2565 Y-17.023 Z-5.
N2570 Z0.
N2575 G0 X213.874 Y-21.244
N2580 G1 Z-3.3 F0.
N2585 Z-5.
N2590 X213.871 Y-21.251 Z-5.067
N2595 X213.864 Y-21.272 Z-5.13
N2600 X213.852 Y-21.305 Z-5.187
N2605 X213.837 Y-21.35 Z-5.235
N2610 X213.818 Y-21.404 Z-5.27
N2615 X213.797 Y-21.464 Z-5.292
N2620 X213.775 Y-21.527 Z-5.3
N2625 X213.618 Y-21.978
N2630 X213.499 Y-22.44
N2635 X213.419 Y-22.911
N2640 X213.379 Y-23.386
N2645 X213.38 Y-23.864
N2650 X213.419 Y-24.34
N2655 X213.499 Y-24.81
N2660 X213.618 Y-25.273
N2665 X213.775 Y-25.724
N2670 X213.969 Y-26.16
N2675 X214.199 Y-26.578
N2680 X214.463 Y-26.976
N2685 X214.76 Y-27.35
N2690 X215.087 Y-27.698
N2695 X215.441 Y-28.017
N2700 X215.822 Y-28.306
N2705 X216.225 Y-28.562
N2710 X216.648 Y-28.783
N2715 X217.088 Y-28.968
N2720 X217.542 Y-29.115
N2725 X218.007 Y-29.224
N2730 X218.479 Y-29.294
N2735 X218.955 Y-29.324
N2740 X219.433 Y-29.314
N2745 X219.908 Y-29.264
N2750 X220.376 Y-29.174
N2755 X220.836 Y-29.046
N2760 X221.284 Y-28.879
N2765 X221.716 Y-28.676
N2770 X222.129 Y-28.438
N2775 X222.521 Y-28.165
N2780 X222.889 Y-27.861
N2785 X223.23 Y-27.527
N2790 X223.542 Y-27.165
N2795 X223.822 Y-26.779
N2800 X224.07 Y-26.371
N2805 X224.282 Y-25.943
N2810 X224.458 Y-25.499
N2815 X224.596 Y-25.042
N2820 X224.695 Y-24.575
N2825 X224.755 Y-24.101
N2830 X224.774 Y-23.625
N2835 X224.755 Y-23.148
N2840 X224.695 Y-22.674
N2845 X224.595 Y-22.207
N2850 X224.457 Y-21.75
N2855 X224.282 Y-21.307
N2860 X224.069 Y-20.879
N2865 X223.822 Y-20.471
N2870 X223.542 Y-20.084
N2875 X223.23 Y-19.723
N2880 X222.888 Y-19.389
N2885 X222.521 Y-19.085
N2890 X222.129 Y-18.812
N2895 X221.715 Y-18.574
N2900 X221.283 Y-18.37
N2905 X220.836 Y-18.204
N2910 X220.376 Y-18.076
N2915 X219.907 Y-17.986
N2920 X219.432 Y-17.936
N2925 X218.955 Y-17.926
N2930 X218.479 Y-17.956
N2935 X218.006 Y-18.026
N2940 X217.542 Y-18.135
N2945 X217.087 Y-18.282
N2950 X216.647 Y-18.468
N2955 X216.224 Y-18.689
N2960 X215.821 Y-18.944
N2965 X215.441 Y-19.233
N2970 X215.086 Y-19.553
N2975 X214.76 Y-19.901
N2980 X214.463 Y-20.275
N2985 X214.199 Y-20.672
N2990 X213.969 Y-21.091
N2995 X213.775 Y-21.527
N3000 X213.748 Y-21.588 Z-5.292
N3005 X213.722 Y-21.646 Z-5.27
N3010 X213.699 Y-21.698 Z-5.235
N3015 X213.68 Y-21.741 Z-5.187
N3020 X213.665 Y-21.774 Z-5.13
N3025 X213.656 Y-21.794 Z-5.067
N3030 X213.653 Y-21.801 Z-5.
N3035 Z0.
N3040 G0 X234.378 Y-23.087
N3045 G1 Z-3.3 F0.
N3050 Z-5.
N3055 Y-23.094 Z-5.067
N3060 Y-23.116 Z-5.13
N3065 X234.379 Y-23.152 Z-5.187
N3070 Y-23.199 Z-5.235
N3075 Y-23.256 Z-5.27
N3080 Y-23.32 Z-5.292
N3085 Y-23.386 Z-5.3
N3090 X234.38 Y-23.864
N3095 X234.419 Y-24.34
N3100 X234.499 Y-24.81
N3105 X234.618 Y-25.273
N3110 X234.775 Y-25.724
N3115 X234.969 Y-26.16
N3120 X235.199 Y-26.578
N3125 X235.463 Y-26.976
N3130 X235.76 Y-27.35
N3135 X236.087 Y-27.698
N3140 X236.441 Y-28.017
N3145 X236.822 Y-28.306
N3150 X237.225 Y-28.562
N3155 X237.648 Y-28.783
N3160 X238.088 Y-28.968
N3165 X238.542 Y-29.115
N3170 X239.007 Y-29.224
N3175 X239.479 Y-29.294
N3180 X239.955 Y-29.324
N3185 X240.433 Y-29.314
N3190 X240.908 Y-29.264
N3195 X241.376 Y-29.174
N3200 X241.836 Y-29.046
N3205 X242.284 Y-28.879
N3210 X242.716 Y-28.676
N3215 X243.129 Y-28.438
N3220 X243.521 Y-28.165
N3225 X243.889 Y-27.861
N3230 X244.23 Y-27.527
N3235 X244.542 Y-27.165
N3240 X244.822 Y-26.779
N3245 X245.07 Y-26.371
N3250 X245.282 Y-25.943
N3255 X245.458 Y-25.499
N3260 X245.596 Y-25.042
N3265 X245.695 Y-24.575
N3270 X245.755 Y-24.101
N3275 X245.774 Y-23.625
N3280 X245.755 Y-23.148
N3285 X245.695 Y-22.674
N3290 X245.595 Y-22.207
N3295 X245.457 Y-21.75
N3300 X245.282 Y-21.307
N3305 X245.069 Y-20.879
N3310 X244.822 Y-20.471
N3315 X244.542 Y-20.084
N3320 X244.23 Y-19.723
N3325 X243.888 Y-19.389
N3330 X243.521 Y-19.085
N3335 X243.129 Y-18.812
N3340 X242.715 Y-18.574
N3345 X242.283 Y-18.37
N3350 X241.836 Y-18.204
N3355 X241.376 Y-18.076
N3360 X240.907 Y-17.986
N3365 X240.432 Y-17.936
N3370 X239.955 Y-17.926
N3375 X239.479 Y-17.956
N3380 X239.006 Y-18.026
N3385 X238.542 Y-18.135
N3390 X238.087 Y-18.282
N3395 X237.647 Y-18.468
N3400 X237.224 Y-18.689
N3405 X236.821 Y-18.944
N3410 X236.441 Y-19.233
N3415 X236.086 Y-19.553
N3420 X235.76 Y-19.901
N3425 X235.463 Y-20.275
N3430 X235.199 Y-20.672
N3435 X234.969 Y-21.091
N3440 X234.775 Y-21.527
N3445 X234.618 Y-21.978
N3450 X234.499 Y-22.44
N3455 X234.419 Y-22.911
N3460 X234.379 Y-23.386
N3465 X234.373 Y-23.453 Z-5.292
N3470 X234.368 Y-23.516 Z-5.27
N3475 X234.363 Y-23.573 Z-5.235
N3480 X234.359 Y-23.62 Z-5.187
N3485 X234.356 Y-23.656 Z-5.13
N3490 X234.354 Y-23.678 Z-5.067
N3495 Y-23.685 Z-5.
N3500 Z0.
N3505 G0 X259.561 Y-18.982
N3510 G1 Z-3.3 F0.
N3515 Z-5.
N3520 X259.563 Y-18.99 Z-5.067
N3525 X259.57 Y-19.011 Z-5.13
N3530 X259.581 Y-19.045 Z-5.187
N3535 X259.595 Y-19.09 Z-5.235
N3540 X259.611 Y-19.145 Z-5.27
N3545 X259.63 Y-19.205 Z-5.292
N3550 X259.65 Y-19.269 Z-5.3
N3555 X259.841 Y-19.885
N3560 X260.069 Y-20.488
N3565 X260.335 Y-21.076
N3570 X260.637 Y-21.646
N3575 X260.973 Y-22.196
N3580 X261.343 Y-22.724
N3585 X261.745 Y-23.229
N3590 X262.177 Y-23.707
N3595 X262.638 Y-24.158
N3600 X263.126 Y-24.58
N3605 X263.64 Y-24.97
N3610 X264.176 Y-25.328
N3615 X264.734 Y-25.652
N3620 X265.311 Y-25.94
N3625 X265.904 Y-26.192
N3630 X266.512 Y-26.407
N3635 X267.132 Y-26.584
N3640 X267.762 Y-26.723
N3645 X268.399 Y-26.822
N3650 X269.042 Y-26.881
N3655 X269.686 Y-26.9
N3660 X270.331 Y-26.879
N3665 X270.973 Y-26.819
N3670 X271.61 Y-26.718
N3675 X272.239 Y-26.579
N3680 X272.859 Y-26.4
N3685 X273.467 Y-26.184
N3690 X274.06 Y-25.93
N3695 X274.636 Y-25.64
N3700 X275.193 Y-25.315
N3705 X275.728 Y-24.956
N3710 X276.241 Y-24.565
N3715 X276.728 Y-24.142
N3720 X277.188 Y-23.691
N3725 X277.619 Y-23.211
N3730 X278.02 Y-22.706
N3735 X278.389 Y-22.177
N3740 X278.724 Y-21.625
N3745 X279.024 Y-21.055
N3750 X279.288 Y-20.466
N3755 X279.516 Y-19.863
N3760 X279.705 Y-19.247
N3765 X279.856 Y-18.619
N3770 X279.968 Y-17.984
N3775 X280.04 Y-17.344
N3780 X280.073 Y-16.699
N3785 X280.074 Y-16.5
N3790 X280.054 Y-15.855
N3795 X279.995 Y-15.213
N3800 X279.895 Y-14.576
N3805 X279.756 Y-13.946
N3810 X279.578 Y-13.326
N3815 X279.363 Y-12.719
N3820 X279.11 Y-12.125
N3825 X278.82 Y-11.549
N3830 X278.496 Y-10.992
N3835 X278.138 Y-10.456
N3840 X277.747 Y-9.943
N3845 X277.325 Y-9.455
N3850 X276.873 Y-8.994
N3855 X276.394 Y-8.563
N3860 X275.889 Y-8.161
N3865 X275.361 Y-7.792
N3870 X274.81 Y-7.456
N3875 X274.24 Y-7.156
N3880 X273.652 Y-6.891
N3885 X273.048 Y-6.663
N3890 X272.432 Y-6.472
N3895 X271.805 Y-6.321
N3900 X271.17 Y-6.208
N3905 X270.53 Y-6.135
N3910 X269.886 Y-6.102
N3915 X269.241 Y-6.109
N3920 X268.598 Y-6.156
N3925 X267.958 Y-6.243
N3930 X267.326 Y-6.369
N3935 X266.703 Y-6.534
N3940 X266.091 Y-6.737
N3945 X265.492 Y-6.978
N3950 X264.91 Y-7.255
N3955 X264.346 Y-7.569
N3960 X263.803 Y-7.916
N3965 X263.282 Y-8.296
N3970 X262.786 Y-8.708
N3975 X262.316 Y-9.15
N3980 X261.875 Y-9.62
N3985 X261.464 Y-10.117
N3990 X261.084 Y-10.638
N3995 X260.737 Y-11.182
N4000 X260.425 Y-11.746
N4005 X260.148 Y-12.328
N4010 X259.908 Y-12.927
N4015 X259.705 Y-13.539
N4020 X259.54 Y-14.163
N4025 X259.415 Y-14.795
N4030 X259.329 Y-15.435
N4035 X259.283 Y-16.078
N4040 X259.277 Y-16.723
N4045 X259.311 Y-17.367
N4050 X259.384 Y-18.007
N4055 X259.498 Y-18.642
N4060 X259.65 Y-19.269
N4065 X259.666 Y-19.334 Z-5.292
N4070 X259.681 Y-19.395 Z-5.27
N4075 X259.694 Y-19.451 Z-5.235
N4080 X259.705 Y-19.497 Z-5.187
N4085 X259.714 Y-19.532 Z-5.13
N4090 X259.719 Y-19.553 Z-5.067
N4095 X259.721 Y-19.561 Z-5.
N4100 Z0.
N4105 G0 X287.261 Y-16.423
N4110 G1 Z-3.3 F0.
N4115 Z-5.
N4120 X287.262 Y-16.431 Z-5.067
N4125 X287.263 Y-16.453 Z-5.13
N4130 X287.265 Y-16.488 Z-5.187
N4135 X287.267 Y-16.536 Z-5.235
N4140 X287.27 Y-16.593 Z-5.27
N4145 X287.273 Y-16.656 Z-5.292
N4150 X287.277 Y-16.723 Z-5.3
N4155 X287.311 Y-17.367
N4160 X287.384 Y-18.007
N4165 X287.498 Y-18.642
N4170 X287.65 Y-19.269
N4175 X287.841 Y-19.885
N4180 X288.069 Y-20.488
N4185 X288.335 Y-21.076
N4190 X288.637 Y-21.646
N4195 X288.973 Y-22.196
N4200 X289.343 Y-22.724
N4205 X289.745 Y-23.229
N4210 X290.177 Y-23.707
N4215 X290.638 Y-24.158
N4220 X291.126 Y-24.58
N4225 X291.64 Y-24.97
N4230 X292.176 Y-25.328
N4235 X292.734 Y-25.652
N4240 X293.311 Y-25.94
N4245 X293.904 Y-26.192
N4250 X294.512 Y-26.407
N4255 X295.132 Y-26.584
N4260 X295.762 Y-26.723
N4265 X296.399 Y-26.822
N4270 X297.042 Y-26.881
N4275 X297.686 Y-26.9
N4280 X298.331 Y-26.879
N4285 X298.973 Y-26.819
N4290 X299.61 Y-26.718
N4295 X300.239 Y-26.579
N4300 X300.859 Y-26.4
N4305 X301.467 Y-26.184
N4310 X302.06 Y-25.93
N4315 X302.636 Y-25.64
N4320 X303.193 Y-25.315
N4325 X303.728 Y-24.956
N4330 X304.241 Y-24.565
N4335 X304.728 Y-24.142
N4340 X305.188 Y-23.691
N4345 X305.619 Y-23.211
N4350 X306.02 Y-22.706
N4355 X306.389 Y-22.177
N4360 X306.724 Y-21.625
N4365 X307.024 Y-21.055
N4370 X307.288 Y-20.466
N4375 X307.516 Y-19.863
N4380 X307.705 Y-19.247
N4385 X307.856 Y-18.619
N4390 X307.968 Y-17.984
N4395 X308.04 Y-17.344
N4400 X308.073 Y-16.699
N4405 X308.074 Y-16.5
N4410 X308.054 Y-15.855
N4415 X307.995 Y-15.213
N4420 X307.895 Y-14.576
N4425 X307.756 Y-13.946
N4430 X307.578 Y-13.326
N4435 X307.363 Y-12.719
N4440 X307.11 Y-12.125
N4445 X306.82 Y-11.549
N4450 X306.496 Y-10.992
N4455 X306.138 Y-10.456
N4460 X305.747 Y-9.943
N4465 X305.325 Y-9.455
N4470 X304.873 Y-8.994
N4475 X304.394 Y-8.563
N4480 X303.889 Y-8.161
N4485 X303.361 Y-7.792
N4490 X302.81 Y-7.456
N4495 X302.24 Y-7.156
N4500 X301.652 Y-6.891
N4505 X301.048 Y-6.663
N4510 X300.432 Y-6.472
N4515 X299.805 Y-6.321
N4520 X299.17 Y-6.208
N4525 X298.53 Y-6.135
N4530 X297.886 Y-6.102
N4535 X297.241 Y-6.109
N4540 X296.598 Y-6.156
N4545 X295.958 Y-6.243
N4550 X295.326 Y-6.369
N4555 X294.703 Y-6.534
N4560 X294.091 Y-6.737
N4565 X293.492 Y-6.978
N4570 X292.91 Y-7.255
N4575 X292.346 Y-7.569
N4580 X291.803 Y-7.916
N4585 X291.282 Y-8.296
N4590 X290.786 Y-8.708
N4595 X290.316 Y-9.15
N4600 X289.875 Y-9.62
N4605 X289.464 Y-10.117
N4610 X289.084 Y-10.638
N4615 X288.737 Y-11.182
N4620 X288.425 Y-11.746
N4625 X288.148 Y-12.328
N4630 X287.908 Y-12.927
N4635 X287.705 Y-13.539
N4640 X287.54 Y-14.163
N4645 X287.415 Y-14.795
N4650 X287.329 Y-15.435
N4655 X287.283 Y-16.078
N4660 X287.277 Y-16.723
N4665 X287.276 Y-16.789 Z-5.292
N4670 Y-16.853 Z-5.27
N4675 X287.275 Y-16.91 Z-5.235
N4680 Y-16.957 Z-5.187
N4685 X287.274 Y-16.993 Z-5.13
N4690 Y-17.015 Z-5.067
N4695 Y-17.023 Z-5.
N4700 Z0.
N4705 G0 X333.061 Y-16.423
N4710 G1 Z-3.3 F0.
N4715 Z-5.
N4720 X333.062 Y-16.431 Z-5.067
N4725 X333.063 Y-16.453 Z-5.13
N4730 X333.065 Y-16.488 Z-5.187
N4735 X333.067 Y-16.536 Z-5.235
N4740 X333.07 Y-16.593 Z-5.27
N4745 X333.073 Y-16.656 Z-5.292
N4750 X333.077 Y-16.723 Z-5.3
N4755 X333.111 Y-17.367
N4760 X333.184 Y-18.007
N4765 X333.298 Y-18.642
N4770 X333.45 Y-19.269
N4775 X333.641 Y-19.885
N4780 X333.869 Y-20.488
N4785 X334.135 Y-21.076
N4790 X334.437 Y-21.646
N4795 X334.773 Y-22.196
N4800 X335.143 Y-22.724
N4805 X335.545 Y-23.229
N4810 X335.977 Y-23.707
N4815 X336.438 Y-24.158
N4820 X336.926 Y-24.58
N4825 X337.44 Y-24.97
N4830 X337.976 Y-25.328
N4835 X338.534 Y-25.652
N4840 X339.111 Y-25.94
N4845 X339.704 Y-26.192
N4850 X340.312 Y-26.407
N4855 X340.932 Y-26.584
N4860 X341.562 Y-26.723
N4865 X342.199 Y-26.822
N4870 X342.842 Y-26.881
N4875 X343.486 Y-26.9
N4880 X344.131 Y-26.879
N4885 X344.773 Y-26.819
N4890 X345.41 Y-26.718
N4895 X346.039 Y-26.579
N4900 X346.659 Y-26.4
N4905 X347.267 Y-26.184
N4910 X347.86 Y-25.93
N4915 X348.436 Y-25.64
N4920 X348.993 Y-25.315
N4925 X349.528 Y-24.956
N4930 X350.041 Y-24.565
N4935 X350.528 Y-24.142
N4940 X350.988 Y-23.691
N4945 X351.419 Y-23.211
N4950 X351.82 Y-22.706
N4955 X352.189 Y-22.177
N4960 X352.524 Y-21.625
N4965 X352.824 Y-21.055
N4970 X353.088 Y-20.466
N4975 X353.316 Y-19.863
N4980 X353.505 Y-19.247
N4985 X353.656 Y-18.619
N4990 X353.768 Y-17.984
N4995 X353.84 Y-17.344
N5000 X353.873 Y-16.699
N5005 X353.874 Y-16.5
N5010 X353.854 Y-15.855
N5015 X353.795 Y-15.213
N5020 X353.695 Y-14.576
N5025 X353.556 Y-13.946
N5030 X353.378 Y-13.326
N5035 X353.163 Y-12.719
N5040 X352.91 Y-12.125
N5045 X352.62 Y-11.549
N5050 X352.296 Y-10.992
N5055 X351.938 Y-10.456
N5060 X351.547 Y-9.943
N5065 X351.125 Y-9.455
N5070 X350.673 Y-8.994
N5075 X350.194 Y-8.563
N5080 X349.689 Y-8.161
N5085 X349.161 Y-7.792
N5090 X348.61 Y-7.456
N5095 X348.04 Y-7.156
N5100 X347.452 Y-6.891
N5105 X346.848 Y-6.663
N5110 X346.232 Y-6.472
N5115 X345.605 Y-6.321
N5120 X344.97 Y-6.208
N5125 X344.33 Y-6.135
N5130 X343.686 Y-6.102
N5135 X343.041 Y-6.109
N5140 X342.398 Y-6.156
N5145 X341.758 Y-6.243
N5150 X341.126 Y-6.369
N5155 X340.503 Y-6.534
N5160 X339.891 Y-6.737
N5165 X339.292 Y-6.978
N5170 X338.71 Y-7.255
N5175 X338.146 Y-7.569
N5180 X337.603 Y-7.916
N5185 X337.082 Y-8.296
N5190 X336.586 Y-8.708
N5195 X336.116 Y-9.15
N5200 X335.675 Y-9.62
N5205 X335.264 Y-10.117
N5210 X334.884 Y-10.638
N5215 X334.537 Y-11.182
N5220 X334.225 Y-11.746
N5225 X333.948 Y-12.328
N5230 X333.708 Y-12.927
N5235 X333.505 Y-13.539
N5240 X333.34 Y-14.163
N5245 X333.215 Y-14.795
N5250 X333.129 Y-15.435
N5255 X333.083 Y-16.078
N5260 X333.077 Y-16.723
N5265 X333.076 Y-16.789 Z-5.292
N5270 Y-16.853 Z-5.27
N5275 X333.075 Y-16.91 Z-5.235
N5280 Y-16.957 Z-5.187
N5285 X333.074 Y-16.993 Z-5.13
N5290 Y-17.015 Z-5.067
N5295 Y-17.023 Z-5.
N5300 Z0.
N5305 G0 X378.861 Y-16.423
N5310 G1 Z-3.3 F0.
N5315 Z-5.
N5320 X378.862 Y-16.431 Z-5.067
N5325 X378.863 Y-16.453 Z-5.13
N5330 X378.865 Y-16.488 Z-5.187
N5335 X378.867 Y-16.536 Z-5.235
N5340 X378.87 Y-16.593 Z-5.27
N5345 X378.873 Y-16.656 Z-5.292
N5350 X378.877 Y-16.723 Z-5.3
N5355 X378.911 Y-17.367
N5360 X378.984 Y-18.007
N5365 X379.098 Y-18.642
N5370 X379.25 Y-19.269
N5375 X379.441 Y-19.885
N5380 X379.669 Y-20.488
N5385 X379.935 Y-21.076
N5390 X380.237 Y-21.646
N5395 X380.573 Y-22.196
N5400 X380.943 Y-22.724
N5405 X381.345 Y-23.229
N5410 X381.777 Y-23.707
N5415 X382.238 Y-24.158
N5420 X382.726 Y-24.58
N5425 X383.24 Y-24.97
N5430 X383.776 Y-25.328
N5435 X384.334 Y-25.652
N5440 X384.911 Y-25.94
N5445 X385.504 Y-26.192
N5450 X386.112 Y-26.407
N5455 X386.732 Y-26.584
N5460 X387.362 Y-26.723
N5465 X387.999 Y-26.822
N5470 X388.642 Y-26.881
N5475 X389.286 Y-26.9
N5480 X389.931 Y-26.879
N5485 X390.573 Y-26.819
N5490 X391.21 Y-26.718
N5495 X391.839 Y-26.579
N5500 X392.459 Y-26.4
N5505 X393.067 Y-26.184
N5510 X393.66 Y-25.93
N5515 X394.236 Y-25.64
N5520 X394.793 Y-25.315
N5525 X395.328 Y-24.956
N5530 X395.841 Y-24.565
N5535 X396.328 Y-24.142
N5540 X396.788 Y-23.691
N5545 X397.219 Y-23.211
N5550 X397.62 Y-22.706
N5555 X397.989 Y-22.177
N5560 X398.324 Y-21.625
N5565 X398.624 Y-21.055
N5570 X398.888 Y-20.466
N5575 X399.116 Y-19.863
N5580 X399.305 Y-19.247
N5585 X399.456 Y-18.619
N5590 X399.568 Y-17.984
N5595 X399.64 Y-17.344
N5600 X399.673 Y-16.699
N5605 X399.674 Y-16.5
N5610 X399.654 Y-15.855
N5615 X399.595 Y-15.213
N5620 X399.495 Y-14.576
N5625 X399.356 Y-13.946
N5630 X399.178 Y-13.326
N5635 X398.963 Y-12.719
N5640 X398.71 Y-12.125
N5645 X398.42 Y-11.549
N5650 X398.096 Y-10.992
N5655 X397.738 Y-10.456
N5660 X397.347 Y-9.943
N5665 X396.925 Y-9.455
N5670 X396.473 Y-8.994
N5675 X395.994 Y-8.563
N5680 X395.489 Y-8.161
N5685 X394.961 Y-7.792
N5690 X394.41 Y-7.456
N5695 X393.84 Y-7.156
N5700 X393.252 Y-6.891
N5705 X392.648 Y-6.663
N5710 X392.032 Y-6.472
N5715 X391.405 Y-6.321
N5720 X390.77 Y-6.208
N5725 X390.13 Y-6.135
N5730 X389.486 Y-6.102
N5735 X388.841 Y-6.109
N5740 X388.198 Y-6.156
N5745 X387.558 Y-6.243
N5750 X386.926 Y-6.369
N5755 X386.303 Y-6.534
N5760 X385.691 Y-6.737
N5765 X385.092 Y-6.978
N5770 X384.51 Y-7.255
N5775 X383.946 Y-7.569
N5780 X383.403 Y-7.916
N5785 X382.882 Y-8.296
N5790 X382.386 Y-8.708
N5795 X381.916 Y-9.15
N5800 X381.475 Y-9.62
N5805 X381.064 Y-10.117
N5810 X380.684 Y-10.638
N5815 X380.337 Y-11.182
N5820 X380.025 Y-11.746
N5825 X379.748 Y-12.328
N5830 X379.508 Y-12.927
N5835 X379.305 Y-13.539
N5840 X379.14 Y-14.163
N5845 X379.015 Y-14.795
N5850 X378.929 Y-15.435
N5855 X378.883 Y-16.078
N5860 X378.877 Y-16.723
N5865 X378.876 Y-16.789 Z-5.292
N5870 Y-16.853 Z-5.27
N5875 X378.875 Y-16.91 Z-5.235
N5880 Y-16.957 Z-5.187
N5885 X378.874 Y-16.993 Z-5.13
N5890 Y-17.015 Z-5.067
N5895 Y-17.023 Z-5.
N5900 Z0.
N5905 G0 Z2.5
N5910 G17
N5915 M9
N5920 G53 G0 Z0.
N5925 M30
%
